src/assets/my.cube
TITLE "Generated by Resolve"
LUT_3D_SIZE 33
0 0 0
0 0 0
0 0 0
0 0 0
0 0 0
0 0 0
0 0 0
0.0265049 0 0
0.0609598 0 0
0.0939651 0 0
0.125963 0 0
0.15494 0 0
0.14345 0 0
0.129839 0 0
0.113527 0 0
0.0936294 0 0
0.0687724 0 0
0.0412604 0 0
0.011017 0 0
0.12903 0 0
0.255207 0 0
0.352834 0 0
0.458762 0 0
0.537423 0 0
0.597787 0 0
0.641672 0 0
0.678813 0 0
0.713817 0 0
0.747219 0 0
0.779385 0 0
0.810544 0 0
0.840879 0 0
0.870512 0 0
0 0 0
0 0 0
0 0 0
0 0 0
0 0 0
0 0 0
0 0 0
0.03682 0 0
0.0720073 0 0
0.105745 0 0
0.137896 0 0
0.125353 0 0
0.110079 0 0
0.0911421 0 0
0.0672618 0 0
0.0404669 0 0
0.00991836 0 0
0.138048 0 0
0.271321 0 0
0.39443 0 0
0.468925 0 0
0.529595 0 0
0.566278 0 0
0.603555 0 0
0.638712 0 0
0.672297 0 0
0.704677 0 0
0.73608 0 0
0.766674 0 0
0.796597 0 0
0.825925 0 0
0.854749 0 0
0.883085 0 0
0 0 0
0 0 0
0 0 0
0 0 0
0 0 0
0 0 0
0.0093843 0 0
0.0480354 0 0
0.0842145 0 0
0.117311 0 0
0.102953 0 0
0.084596 0 0
0.0614328 0 0
0.0347448 0 0
0.00215152 0 0
0.206577 0 0
0.324331 0 0
0.399237 0 0
0.457984 0 0
0.491371 0 0
0.521416 0 0
0.55697 0 0
0.590967 0 0
0.623774 0 0
0.655619 0 0
0.686702 0 0
0.717098 0 0
0.746899 0 0
0.776196 0 0
0.80502 0 0
0.833402 0 0
0.861433 0 0
0.889097 0 0
0 0 0
0 0 0
0 0 0
0 0 0
0 0 0
0 0 0
0.0205234 0 0
0.0607156 0 0
0.090837 0 0
0.0725261 0 0
0.0500038 0 0
0.0203555 0 0
0.138491 0 0
0.253101 0 0
0.329961 0 0
0.37821 0 0
0.409964 0 0
0.438743 0 0
0.466407 0 0
0.499229 0 0
0.53286 0 0
0.56556 0 0
0.597513 0 0
0.628763 0 0
0.659358 4.57771e-05 0
0.689342 0 0
0.718837 0 0
0.747906 0 0
0.776577 0 0
0.804883 0 0
0.832822 0 0
0.860441 0 0
0.887816 0 0
0 0 0
0 0 0
0 0 0
0 0 0
0 0 0
0 0 0
0.0331121 0 0
0.0536812 0 0
0.0267948 0 0
0.0639048 0 0
0.186282 0 0
0.250111 0 0
0.283177 0 0
0.313283 0.00234989 0
0.34313 0.0150912 0
0.372869 0.0269627 0
0.402304 0.0382391 0
0.431632 0.0486915 0
0.462501 0.0526894 0
0.49366 0.0554971 0
0.524865 0.0574807 0
0.555901 0.058793 0
0.586664 0.0595254 0
0.617227 0.0594186 0
0.647272 0.0593729 0
0.67689 0.0591897 0
0.706096 0.0588998 0
0.734859 0.0585336 0
0.763241 0.0580606 0
0.791241 0.057557 0
0.818891 0.0569619 0
0.846204 0.0563516 0
0.873228 0.0556497 0
0 0 0
0 0 0
0 0 0
0 0.00646983 0
0 0.0157626 0
0 0.0307927 0
0.0331273 0 0
0.0814374 0.00978103 0
0.125597 0.0198672 0
0.165057 0.0297093 0
0.201678 0.0393225 0
0.236332 0.0487831 0
0.26949 0.0581369 0
0.301457 0.0671244 0
0.332433 0.0764477 0
0.3626 0.0860914 0
0.392035 0.0951705 0
0.420661 0.10277 0
0.448386 0.10782 0
0.475654 0.112764 0
0.50277 0.117494 0
0.529976 0.121813 0
0.557366 0.125673 0
0.584939 0.129091 0
0.612589 0.132113 0
0.640284 0.134783 0
0.667903 0.137163 0
0.695445 0.139284 0
0.72285 0.141192 0
0.750072 0.142931 0
0.777157 0.144472 0
0.804028 0.145876 0
0.830686 0.147158 0
0 0.0449836 0
0 0.0584878 0
0 0.0118715 0
0 0.0222782 0
0 0.0453651 0
0.00347906 0.0641489 0
0.0580606 0.0672465 0
0.101076 0.0744945 0
0.140642 0.082887 0
0.177279 0.0912032 0
0.211902 0.0994125 0
0.245029 0.107469 0
0.276967 0.115358 0
0.307912 0.123095 0
0.338033 0.130663 0
0.367437 0.138094 0
0.395804 0.143359 0
0.423529 0.147936 0
0.450782 0.152468 0
0.477638 0.156954 0
0.504082 0.16141 0
0.53019 0.16582 0
0.555978 0.170184 0
0.581598 0.174441 0
0.607172 0.178515 0
0.632792 0.182376 0
0.658473 0.185977 0
0.684215 0.189349 0
0.709972 0.192493 0
0.735775 0.195407 0
0.761532 0.198138 0
0.787259 0.200687 0
0.812924 0.203067 0
0 0.0388037 0
0 0.0700542 0
0 0.0839094 0
0.137896 0.014435 0.119265
0 0.124285 0
0.019379 0.131746 0
0.0738079 0.13167 0
0.116106 0.136324 0
0.153933 0.141894 0
0.189227 0.147845 0
0.222751 0.153994 0
0.254932 0.160235 0
0.286061 0.166506 0
0.316304 0.172793 0
0.345403 0.177478 0
0.373754 0.181643 0
0.401587 0.185794 0
0.428931 0.189944 0
0.455833 0.19408 0
0.482338 0.198199 0
0.508476 0.202319 0
0.534279 0.206409 0
0.559777 0.210483 0
0.58497 0.214527 0
0.609888 0.21857 0
0.634562 0.222583 0
0.659068 0.226535 0
0.683482 0.230396 0
0.707851 0.234134 0
0.732219 0.237736 0
0.756603 0.241169 0
0.781018 0.244465 0
0.805447 0.247593 0
0.0009308 0.112428 0.0206912
0.153872 0.0446632 0.140917
0.169024 0.0641489 0.124849
0 0.169329 0
0 0.185229 0
0.0336767 0.187304 0
0.0887007 0.185672 0
0.129519 0.188846 0
0.166262 0.193042 0
0.200641 0.197726 0
0.233402 0.202716 0
0.264775 0.207431 0
0.294804 0.211078 0
0.324056 0.214771 0
0.352651 0.218524 0
0.380667 0.222309 0
0.408164 0.226108 0
0.435203 0.229923 0
0.46183 0.233738 0
0.48806 0.237568 0
0.513939 0.241382 0
0.539513 0.245212 0
0.564767 0.249027 0
0.589731 0.252827 0
0.614435 0.256641 0
0.638895 0.260426 0
0.663111 0.26421 0
0.687114 0.267994 0
0.710903 0.271748 0
0.734524 0.275486 0
0.758022 0.279164 0
0.78146 0.28278 0
0.804852 0.286305 0
0.294224 0 0.256825
0.12192 0.158267 0.0722362
0 0.213062 0
0 0.230488 0
0.00337224 0.235554 0
0.0471656 0.236774 0
0.102068 0.234211 0
0.141955 0.236439 0
0.177523 0.239002 0
0.210758 0.241703 0
0.242496 0.244663 0
0.273121 0.247807 0
0.302831 0.251072 0
0.331792 0.254429 0
0.360098 0.257847 0
0.387839 0.261311 0
0.415076 0.26482 0
0.441871 0.26836 0
0.468254 0.271916 0
0.49427 0.275486 0
0.519936 0.279072 0
0.545296 0.282658 0
0.570352 0.286259 0
0.595132 0.289845 0
0.619654 0.293446 0
0.643931 0.297047 0
0.667979 0.300649 0
0.691814 0.304234 0
0.71545 0.30782 0
0.738872 0.311406 0
0.762112 0.314992 0
0.785168 0.318563 0
0.808087 0.322118 0
0.0850538 0.219974 0.0312657
0 0.254032 0
0 0.266194 0
0 0.273945 0
0.019089 0.278294 0
0.0575265 0.279362 0
0.112078 0.276173 0
0.151308 0.277043 0
0.186481 0.278889 0
0.219471 0.281209 0
0.250965 0.283818 0
0.281331 0.286625 0
0.310796 0.289586 0
0.339513 0.292638 0
0.36759 0.295781 0
0.395102 0.299001 0
0.422126 0.302251 0
0.448722 0.305547 0
0.474907 0.308873 0
0.500725 0.31223 0
0.526207 0.315618 0
0.551385 0.319005 0
0.576272 0.322408 0
0.600885 0.325811 0
0.625254 0.329244 0
0.649378 0.332662 0
0.673274 0.336095 0
0.696956 0.339529 0
0.720455 0.342962 0
0.74374 0.346395 0
0.766857 0.349828 0
0.789792 0.353246 0
0.812558 0.35668 0
0.169284 0.247562 0.0974594
0.127672 0.271489 0.0440681
0.0941634 0.28925 0.00314336
0.072221 0.302388 0
0.0669261 0.311574 0
0.0798505 0.31667 0
0.121126 0.315312 0
0.160067 0.315831 0
0.195117 0.317327 0
0.227924 0.319326 0
0.25922 0.321645 0
0.289372 0.324178 0
0.318639 0.326879 0
0.347158 0.329686 0
0.375051 0.332601 0
0.40238 0.335576 0
0.429236 0.338628 0
0.455634 0.341711 0
0.481651 0.344854 0
0.507317 0.348013 0
0.532647 0.351202 0
0.557656 0.354421 0
0.582391 0.357656 0
0.606867 0.360906 0
0.631083 0.364157 0
0.65507 0.367437 0
0.678843 0.370718 0
0.702403 0.373999 0
0.725765 0.377295 0
0.748928 0.380591 0
0.771923 0.383886 0
0.794736 0.387182 0
0.817395 0.390478 0.000900282
0.268833 0.256611 0.187152
0.229908 0.284916 0.143145
0.196429 0.306645 0.0978866
0.16791 0.323796 0.05066
0.145418 0.33724 0.0104372
0.131182 0.347082 0
0.13817 0.3514 0
0.169543 0.353124 0
0.203494 0.354574 0
0.236133 0.356313 0
0.267277 0.358373 0
0.297276 0.360678 0
0.326375 0.363134 0
0.354742 0.365743 0
0.382452 0.368444 0
0.409628 0.371237 0
0.436332 0.37409 0
0.462593 0.376989 0
0.488457 0.37995 0
0.51397 0.38294 0
0.539162 0.385977 0
0.564034 0.389029 0
0.588647 0.392111 0
0.612985 0.395209 0
0.637079 0.398337 0
0.660945 0.401465 0
0.684596 0.404608 0
0.708034 0.407767 0
0.731273 0.410925 0
0.754345 0.414099 0
0.777218 0.417273 0.00120546
0.799939 0.420462 0.00448615
0.822477 0.423636 0.00775158
0.357885 0.260212 0.259464
0.313985 0.29543 0.218112
0.279255 0.320821 0.178882
0.248371 0.341176 0.138186
0.220264 0.3579 0.0927291
0.194171 0.371603 0.039704
0.171344 0.382757 0
0.186267 0.387579 0
0.213413 0.390326 0
0.244266 0.392279 0
0.275166 0.394171 0
0.305028 0.396246 0
0.333989 0.39852 0
0.362203 0.400931 0
0.389792 0.403464 0
0.416831 0.406073 0
0.443397 0.408759 0
0.46952 0.411505 0
0.495262 0.414298 0
0.520653 0.417151 0
0.545708 0.42002 0
0.570474 0.422934 0
0.594949 0.425879 0
0.619181 0.428855 0
0.643168 0.43183 0
0.666926 0.434836 0
0.690455 0.437858 0
0.713802 0.440894 0
0.736934 0.443946 0.00215152
0.759899 0.446998 0.00529488
0.782681 0.450065 0.0084535
0.805295 0.453132 0.0116121
0.827756 0.456214 0.014786
0.432792 0.262287 0.32636
0.392325 0.302296 0.282139
0.353307 0.332616 0.24477
0.320577 0.355932 0.207691
0.289769 0.375418 0.167666
0.258457 0.392248 0.119127
0.216327 0.409812 0.0263981
0.213672 0.418479 0
0.229374 0.42359 0
0.254368 0.426795 0
0.283162 0.429053 0
0.312642 0.431037 0
0.341482 0.433143 0
0.369589 0.43537 0
0.397055 0.437736 0
0.423972 0.440192 0
0.450416 0.442725 0
0.476432 0.445319 0
0.502052 0.44799 0
0.527321 0.45069 0
0.55227 0.453437 0
0.576928 0.456214 0
0.601312 0.459037 0
0.625422 0.461875 0
0.649317 0.464744 0
0.672969 0.467643 0.000671397
0.696406 0.470542 0.00366217
0.719646 0.473472 0.00668345
0.742687 0.476402 0.00970474
0.76556 0.479362 0.0127565
0.788251 0.482322 0.0158083
0.810773 0.485298 0.0188754
0.833143 0.488273 0.0219425
0.499901 0.264393 0.385382
0.463035 0.306844 0.343114
0.423819 0.341772 0.30312
0.387686 0.368734 0.267597
0.355047 0.390707 0.230365
0.320745 0.410346 0.185885
0.266819 0.4336 0.0941787
0.249653 0.446174 0.0320287
0.253025 0.454078 0
0.269322 0.459205 0
0.293156 0.462577 0
0.320546 0.464988 0
0.348882 0.467063 0
0.376867 0.469154 0
0.404227 0.471351 0
0.431037 0.473671 0
0.457374 0.476066 0
0.483284 0.478538 0
0.508812 0.481056 0
0.533989 0.483635 0
0.558831 0.486275 0
0.583383 0.48893 0
0.607675 0.49163 6.10361e-05
0.631693 0.494362 0.00288396
0.655482 0.497124 0.00572213
0.679057 0.499901 0.00860609
0.702403 0.502708 0.01149
0.725551 0.505531 0.0144045
0.748516 0.50837 0.0173342
0.771298 0.511223 0.0202792
0.793912 0.514092 0.0232395
0.816342 0.51696 0.026215
0.838636 0.51986 0.0291905
0.561242 0.267094 0.438819
0.525994 0.311818 0.398856
0.491493 0.348135 0.358755
0.452384 0.379522 0.321904
0.417227 0.404273 0.28632
0.380407 0.426703 0.243702
0.319036 0.454978 0.157671
0.290745 0.471351 0.090959
0.283253 0.482048 0.0402991
0.290028 0.489372 0.00984207
0.307012 0.494316 0
0.330251 0.497719 0
0.356649 0.500191 0
0.38407 0.502312 0
0.411322 0.504387 0
0.438041 0.506569 0
0.464286 0.508843 0
0.490105 0.511193 0
0.515526 0.513603 0
0.540612 0.51606 0.000366217
0.565377 0.518578 0.00297551
0.589837 0.521126 0.00563058
0.614038 0.52372 0.00831617
0.63798 0.526345 0.0110323
0.661677 0.529 0.0137789
0.685161 0.531685 0.016556
0.708431 0.534386 0.0193637
0.731502 0.537118 0.0221714
0.754376 0.539864 0.0250095
0.777081 0.542626 0.027863
0.799619 0.545403 0.0307469
0.821988 0.548196 0.0336309
0.844205 0.551003 0.0365301
0.61799 0.270848 0.487922
0.584451 0.317021 0.450065
0.551156 0.354986 0.412024
0.516228 0.387854 0.373205
0.477424 0.416297 0.337728
0.437552 0.441871 0.295872
0.371221 0.474571 0.213077
0.33434 0.494575 0.147509
0.318013 0.507927 0.0933089
0.315969 0.517479 0.0483406
0.325368 0.524224 0.0202792
0.343053 0.528923 0.00474556
0.366003 0.53225 0
0.391684 0.534752 0
0.418372 0.536873 0
0.444968 0.538949 0
0.471138 0.5411 0.00175479
0.496864 0.543343 0.00407416
0.52221 0.545632 0.00646983
0.547204 0.547997 0.00892653
0.571893 0.550408 0.011429
0.596277 0.552865 0.0139773
0.620386 0.555352 0.0165713
0.644251 0.557885 0.0191806
0.667872 0.560449 0.0218357
0.691279 0.563027 0.0245212
0.714473 0.565652 0.0272374
0.737469 0.568276 0.0299687
0.760281 0.570947 0.0327153
0.78291 0.573617 0.0354925
0.805371 0.576303 0.0382849
0.827665 0.579019 0.0410773
0.849821 0.581735 0.0439002
0.671199 0.275715 0.533639
0.639185 0.322835 0.497642
0.607126 0.361959 0.461341
0.574639 0.395651 0.423865
0.53727 0.426276 0.386542
0.492744 0.456046 0.34403
0.422705 0.492805 0.263722
0.378927 0.516289 0.19765
0.355596 0.532128 0.144244
0.345937 0.543816 0.0964065
0.347967 0.552392 0.0558633
0.359487 0.558587 0.030045
0.377874 0.563012 0.0155337
0.400671 0.566232 0.00900282
0.425818 0.568704 0.0074464
0.451881 0.57084 0.00851453
0.477913 0.5729 0.0105745
0.503563 0.575021 0.0127871
0.528847 0.577218 0.0150759
0.553765 0.579477 0.0174411
0.578378 0.581796 0.019852
0.602686 0.584146 0.0222934
0.626734 0.586557 0.0247959
0.650523 0.588983 0.0273289
0.674067 0.591455 0.0298924
0.697398 0.593957 0.0324865
0.720516 0.59649 0.0351263
0.74345 0.599039 0.0377661
0.766186 0.601617 0.0404364
0.788754 0.604212 0.0431373
0.811154 0.606836 0.0458534
0.833387 0.609461 0.0485695
0.855467 0.612116 0.0513161
0.721431 0.281834 0.576562
0.690883 0.329335 0.54229
0.660212 0.369085 0.507698
0.628748 0.403738 0.471885
0.595682 0.434852 0.433494
0.546578 0.469337 0.38912
0.473396 0.509911 0.311177
0.423514 0.536889 0.243671
0.394629 0.555032 0.190249
0.378714 0.568689 0.142504
0.374136 0.579034 0.0995651
0.379446 0.58677 0.063035
0.392691 0.592447 0.039292
0.411704 0.596597 0.0259098
0.434424 0.59968 0.0198215
0.459159 0.602121 0.0183871
0.484672 0.604242 0.01944
0.510216 0.606287 0.0214542
0.535424 0.608392 0.0236515
0.560281 0.610544 0.0259098
0.584817 0.612772 0.0282292
0.609064 0.615045 0.0305943
0.633036 0.61735 0.0330053
0.656764 0.619699 0.035462
0.680247 0.622095 0.0379339
0.703517 0.624521 0.0404669
0.726574 0.626963 0.0429999
0.749432 0.629435 0.0455787
0.772107 0.631937 0.0481727
0.794614 0.634455 0.050782
0.816953 0.637003 0.0534218
0.839124 0.639551 0.0560769
0.861128 0.64213 0.0587625
0.769284 0.289082 0.617243
0.740108 0.336553 0.584543
0.710613 0.37673 0.551415
0.680308 0.411917 0.517189
0.647547 0.44445 0.479698
0.599466 0.481697 0.432029
0.523613 0.525917 0.356542
0.46775 0.556573 0.286854
0.434333 0.576867 0.233066
0.413291 0.592355 0.185061
0.402991 0.604364 0.141497
0.402472 0.613626 0.102678
0.410468 0.6206 0.0698711
0.425162 0.625818 0.0481575
0.444739 0.629694 0.0359503
0.467399 0.632654 0.0303807
0.491798 0.635019 0.0291142
0.516869 0.637125 0.0301823
0.54197 0.639155 0.032166
0.566751 0.64123 0.0343481
0.591241 0.643366 0.0365759
0.615412 0.645548 0.0388647
0.639323 0.647791 0.0411841
0.662989 0.650065 0.0435645
0.686412 0.652369 0.0459754
0.709621 0.654719 0.0484169
0.732616 0.657084 0.0508888
0.755413 0.65948 0.0533761
0.778027 0.661921 0.0558938
0.800473 0.664363 0.0584573
0.822751 0.666835 0.0610208
0.844862 0.669322 0.0635996
0.866819 0.671824 0.0662089
0.815015 0.297566 0.655924
0.787137 0.344625 0.62472
0.75877 0.384894 0.592966
0.729503 0.420462 0.560067
0.696941 0.454353 0.523186
0.651453 0.493156 0.473548
0.574701 0.540368 0.40148
0.511315 0.57557 0.327718
0.474205 0.597848 0.273533
0.448981 0.615015 0.225177
0.433799 0.628611 0.180926
0.428092 0.639277 0.140948
0.430945 0.647578 0.105837
0.441123 0.653925 0.0764935
0.457069 0.658701 0.0568246
0.477073 0.662333 0.045716
0.499718 0.665156 0.0407263
0.523812 0.667475 0.0396582
0.548501 0.669551 0.0407568
0.57319 0.67155 0.0427405
0.597604 0.673609 0.044892
0.621729 0.675715 0.0470893
0.645579 0.677882 0.0493477
0.669184 0.680079 0.0516365
0.692546 0.682307 0.0539864
0.715694 0.684581 0.0563516
0.738643 0.686885 0.0587472
0.761379 0.689204 0.0611887
0.783948 0.691569 0.0636301
0.806332 0.69395 0.0661173
0.82855 0.696345 0.0686198
0.850614 0.698772 0.0711376
0.872526 0.701213 0.0736858
0.858991 0.307088 0.692988
0.832349 0.353429 0.663172
0.805158 0.393469 0.632761
0.776913 0.429175 0.60116
0.744167 0.464668 0.564324
0.700587 0.504601 0.514336
0.626978 0.553124 0.446189
0.554162 0.594003 0.36669
0.513985 0.618128 0.312154
0.485191 0.636896 0.26334
0.465919 0.651911 0.218524
0.455604 0.663951 0.177478
0.453788 0.673487 0.140749
0.45951 0.680949 0.109087
0.47155 0.686702 0.0834516
0.488457 0.691127 0.0653239
0.508843 0.694514 0.055314
0.531456 0.697215 0.0508736
0.555291 0.699474 0.0500343
0.579614 0.701534 0.051194
0.603922 0.703517 0.0531624
0.628 0.705562 0.0552834
0.651804 0.707637 0.0574655
0.675349 0.709758 0.0596933
0.698665 0.711925 0.0619669
0.721767 0.714137 0.0642557
0.744656 0.716365 0.0665904
0.767346 0.718624 0.0689708
0.789853 0.720928 0.0713512
0.812192 0.723232 0.0737774
0.834348 0.725582 0.0762188
0.856367 0.727932 0.0786755
0.878218 0.730327 0.0809033
0.901442 0.317586 0.728618
0.875944 0.363027 0.700084
0.849699 0.402777 0.670817
0.822644 0.438193 0.640604
0.789334 0.475578 0.603342
0.745846 0.516915 0.553979
0.675456 0.566644 0.486091
0.596368 0.611933 0.404166
0.553399 0.637858 0.349142
0.521645 0.658076 0.299992
0.498894 0.674434 0.254643
0.484703 0.687709 0.212863
0.47863 0.698451 0.174807
0.480064 0.707027 0.141054
0.488151 0.713771 0.11252
0.501701 0.71902 0.0899367
0.519417 0.723095 0.0737469
0.540093 0.726299 0.0647746
0.562661 0.728878 0.0608988
0.586252 0.73109 0.0602884
0.610254 0.733104 0.0614939
0.634241 0.735088 0.063447
0.658 0.737102 0.065568
0.681483 0.739147 0.0677348
0.704753 0.741253 0.0699168
0.727794 0.743389 0.0721599
0.750637 0.745556 0.0744335
0.773281 0.747753 0.0767376
0.795743 0.749981 0.0790723
0.818036 0.752239 0.0814221
0.840146 0.754528 0.0838026
0.862104 0.756832 0.0861982
0.883925 0.759152 0.0886397
0.942596 0.328923 0.763043
0.918074 0.373404 0.735637
0.892897 0.412512 0.707561
0.866423 0.448157 0.678065
0.832853 0.486961 0.640665
0.789517 0.529503 0.591821
0.72256 0.579965 0.524056
0.637858 0.62948 0.440269
0.592325 0.65713 0.384771
0.558099 0.678691 0.335317
0.532509 0.696254 0.289647
0.514763 0.71075 0.247044
0.504891 0.722606 0.207904
0.502403 0.732235 0.172564
0.506722 0.73994 0.141772
0.516793 0.746075 0.116075
0.531624 0.750881 0.0962539
0.549996 0.754665 0.0823987
0.570886 0.757671 0.0741436
0.593393 0.760159 0.0707866
0.61677 0.76231 0.0704051
0.640482 0.764309 0.0716716
0.664149 0.766262 0.0736248
0.687602 0.768261 0.0757153
0.710811 0.770291 0.0778515
0.733822 0.772366 0.0800336
0.756603 0.774472 0.0822461
0.779202 0.776623 0.0844892
0.801617 0.77879 0.0867628
0.823865 0.780987 0.0890669
0.84593 0.7832 0.0913863
0.867857 0.785458 0.0937362
0.889616 0.787717 0.0961013
0.982589 0.340993 0.796399
0.959014 0.38436 0.770062
0.934783 0.422782 0.743069
0.908415 0.459052 0.713787
0.87483 0.498894 0.676432
0.831724 0.542397 0.628077
0.768673 0.59295 0.560815
0.678691 0.646677 0.475181
0.630808 0.67599 0.419211
0.594354 0.698848 0.369467
0.566293 0.71754 0.323461
0.545724 0.733089 0.280446
0.532494 0.745998 0.240436
0.526345 0.756649 0.203738
0.527016 0.765316 0.171054
0.533639 0.77232 0.142824
0.545403 0.777905 0.119783
0.561242 0.78233 0.102296
0.580179 0.78584 0.0904707
0.601267 0.788693 0.08365
0.623697 0.791089 0.0805371
0.64686 0.793179 0.0803845
0.670298 0.795163 0.0817273
0.693675 0.797101 0.0836957
0.716854 0.799069 0.085771
0.739803 0.801083 0.0878767
0.762554 0.803128 0.0900435
0.785107 0.805219 0.0922255
0.807477 0.807324 0.0944381
0.829679 0.809476 0.0966812
0.851698 0.811643 0.0989548
0.873579 0.813825 0.101244
0.895308 0.816037 0.103563
1 0.353948 0.828672
0.998917 0.395834 0.80351
0.975067 0.434119 0.777005
0.948714 0.471015 0.747768
0.915068 0.511696 0.71043
0.872251 0.555917 0.662593
0.813382 0.605859 0.596536
0.71899 0.663569 0.509087
0.668757 0.694545 0.452598
0.630426 0.718563 0.40264
0.600153 0.738338 0.356313
0.57705 0.754894 0.312856
0.560937 0.76878 0.272221
0.551614 0.780362 0.234577
0.548898 0.789944 0.200366
0.552209 0.797787 0.170108
0.560876 0.80415 0.144411
0.574029 0.809262 0.123766
0.590677 0.813367 0.10811
0.61004 0.816663 0.0979477
0.631251 0.819364 0.0922866
0.653605 0.821668 0.0901045
0.67657 0.823728 0.0902571
0.699748 0.825666 0.0916915
0.72285 0.827588 0.0936446
0.745769 0.829541 0.0957046
0.768475 0.83154 0.0978103
0.790997 0.83357 0.0999313
0.813321 0.83563 0.102098
0.835477 0.83772 0.104295
0.857466 0.839826 0.106508
0.879301 0.841978 0.108751
0.900984 0.844129 0.111009
1 0.367575 0.860029
1 0.408179 0.835828
1 0.444495 0.811139
0.988663 0.482597 0.781491
0.954971 0.524132 0.744167
0.912413 0.569055 0.696773
0.855192 0.619379 0.631708
0.758541 0.680293 0.541863
0.705898 0.712947 0.484733
