src/assets/my.cube
TITLE "Generated by Resolve"
LUT_3D_SIZE 5
0 0 0
0.0609598 0 0
0.0687724 0 0
0.597787 0 0
0.870512 0 0
0.0009308 0.112428 0.0206912
0.166262 0.193042 0
0.408164 0.226108 0
0.614435 0.256641 0
0.804852 0.286305 0
0.561242 0.267094 0.438819
0.283253 0.482048 0.0402991
0.464286 0.508843 0
0.661677 0.529 0.0137789
0.844205 0.551003 0.0365301
0.942596 0.328923 0.763043
0.592325 0.65713 0.384771
0.531624 0.750881 0.0962539
0.710811 0.770291 0.0778515
0.889616 0.787717 0.0961013
1 0.415976 1
0.894133 0.796796 0.643198
0.68397 0.947631 0.306966
0.763165 0.992309 0.152026
0.934752 1 0.155474
0 0 0.0800488
0 0 0
0.196246 0 0.0893263
0.747906 0 0
1 0 0
0 0.188785 0.241856
0 0 1
0.477775 0.202579 0.246754
0.6916 0.224063 0.224048
0.903807 0.230671 0.17705
0.864805 0 0.985946
1 0 1
0.700816 0 0.943435
0.751919 0.463874 0.465629
0.842435 0.55021 0.394675
1 0 1
1 0 1
1 0 1
1 0.502571 0.789319
0.895689 0.780179 0.462669
1 0 1
1 0 1
1 0 1
1 0.786892 0.811688
1 0.970291 0.582391
0 0 0.0290227
0.0439918 0 0.264775
0.519921 0 0.646967
0.788479 0 0.392981
1 0 0
0 0.125231 0.637324
0 0 1
0.400107 0.0532845 0.733944
1 0 0
1 0 0
0 0.499306 0.621256
0 0.354177 1
0 0 1
0.349554 0 1
1 0.410361 0.502297
0.825483 0.343725 1
0.599817 0.552041 1
0 0.45536 1
0 0 1
0.678828 0.432212 1
1 0 1
1 0 1
1 0 1
0.345693 0.837705 1
0.691081 0.775204 1
0 0 0.619989
0 0 0.967712
0.401938 0 0.725261
1 0 0.847501
1 0 0.490959
0 0 1
0 0 1
0.140658 0 1
1 0 0.482261
1 0 0
0 0.42295 1
0 0 1
0 0 1
0 0 1
1 0 0.970886
0 0.753475 0.955016
0 0.673564 1
0 0 1
0 0 1
0 0 1
0.742855 0.777691 1
0.511391 0.876768 1
0 0.795636 1
0 0 1
0 0 1
0 0 1
0 0 1
0.364523 0 1
0.926711 0 1
1 0 0.791928
0 0 1
0 0 1
0 0 1
0.600153 0 1
1 0 0.480171
0 0 1
0 0 1
0 0 1
0 0 1
0.739925 0.00267033 1
0 0.699321 1
0 0.467079 1
0 0 1
0 0 1
0 0 1
0 0.986023 1
0 0.923949 1
0 0.561578 1
0 0 1
0 0 1
