src/assets/my.cube
TITLE "Generated by Resolve"
LUT_3D_SIZE 9
0 0 0
0 0 0
0.0609598 0 0
0.14345 0 0
0.0687724 0 0
0.255207 0 0
0.597787 0 0
0.747219 0 0
0.870512 0 0
0 0 0
0 0 0
0.0267948 0 0
0.283177 0 0
0.402304 0.0382391 0
0.524865 0.0574807 0
0.647272 0.0593729 0
0.763241 0.0580606 0
0.873228 0.0556497 0
0.0009308 0.112428 0.0206912
0 0.185229 0
0.166262 0.193042 0
0.294804 0.211078 0
0.408164 0.226108 0
0.513939 0.241382 0
0.614435 0.256641 0
0.710903 0.271748 0
0.804852 0.286305 0
0.268833 0.256611 0.187152
0.145418 0.33724 0.0104372
0.203494 0.354574 0
0.326375 0.363134 0
0.436332 0.37409 0
0.539162 0.385977 0
0.637079 0.398337 0
0.731273 0.410925 0
0.822477 0.423636 0.00775158
0.561242 0.267094 0.438819
0.417227 0.404273 0.28632
0.283253 0.482048 0.0402991
0.356649 0.500191 0
0.464286 0.508843 0
0.565377 0.518578 0.00297551
0.661677 0.529 0.0137789
0.754376 0.539864 0.0250095
0.844205 0.551003 0.0365301
0.769284 0.289082 0.617243
0.647547 0.44445 0.479698
0.434333 0.576867 0.233066
0.410468 0.6206 0.0698711
0.491798 0.635019 0.0291142
0.591241 0.643366 0.0365759
0.686412 0.652369 0.0459754
0.778027 0.661921 0.0558938
0.866819 0.671824 0.0662089
0.942596 0.328923 0.763043
0.832853 0.486961 0.640665
0.592325 0.65713 0.384771
0.504891 0.722606 0.207904
0.531624 0.750881 0.0962539
0.61677 0.76231 0.0704051
0.710811 0.770291 0.0778515
0.801617 0.77879 0.0867628
0.889616 0.787717 0.0961013
1 0.379309 0.892134
0.994705 0.536034 0.777798
0.743145 0.730816 0.516655
0.619699 0.81268 0.333974
0.596323 0.854582 0.195834
0.648997 0.874296 0.12137
0.734936 0.883864 0.109758
0.824933 0.891539 0.117357
0.912306 0.899641 0.125887
1 0.415976 1
1 0.579629 0.910643
0.894133 0.796796 0.643198
0.744915 0.893751 0.456718
0.68397 0.947631 0.306966
0.698299 0.977264 0.200351
0.763165 0.992309 0.152026
0.848005 1 0.147875
0.934752 1 0.155474
0 0 0
0 0 0
0.0635538 0 0
0.0693065 0 0
0.0148318 0 0.00590524
0.402289 0 0
0.666636 0 0
0.832761 0 0
0.948882 0 0
0 0 0
0 0 0.0124514
0.216632 0 0
0.385519 0 0
0.503639 0 0
0.618845 0 0
0.731273 0 0
0.839063 0 0
0.942992 0 0
0 0.180545 0.0706951
0.448966 0 0.484031
0.439185 0 0.360967
0.296223 0.213153 0.104005
0.409049 0.227543 0.11902
0.514443 0.242283 0.134279
0.616327 0.256352 0.146319
0.717464 0.268711 0.150515
0.818051 0.279149 0.145418
0.701274 0 0.751736
0.75642 0 0.736706
0.493172 0.167987 0.371893
0.349752 0.353017 0.167132
0.435691 0.37409 0.154925
0.538262 0.385672 0.167147
0.635966 0.397742 0.179873
0.729961 0.410086 0.192859
0.820966 0.422568 0.205982
0.985061 0 0.97908
1 0 0.962234
0.713573 0.13196 0.568627
0.474418 0.449729 0.292027
0.473579 0.503258 0.203189
0.563638 0.517449 0.201297
0.659785 0.527672 0.212177
0.752331 0.538338 0.223484
0.842008 0.549294 0.235096
1 0 1
1 0 1
0.919112 0.028336 0.750759
0.64181 0.515953 0.439353
0.553185 0.608225 0.293767
0.59527 0.638895 0.242847
0.683925 0.650462 0.244739
0.775418 0.659861 0.254765
0.864103 0.669627 0.265187
1 0 1
1 0 1
1 0 0.921767
0.826917 0.557641 0.596887
0.671275 0.692424 0.413565
0.653178 0.744625 0.313741
0.712215 0.766079 0.28246
0.798581 0.776287 0.286061
0.886473 0.785107 0.295491
1 0 1
1 0 1
1 0 1
1 0.587015 0.75668
0.811734 0.761166 0.544076
0.742046 0.834836 0.412573
0.758267 0.870588 0.341299
0.824765 0.887297 0.321263
0.908812 0.896681 0.325734
1 0 1
1 0 1
1 0 1
1 0.605844 0.911543
0.965438 0.817319 0.677333
0.854292 0.912352 0.526833
0.828275 0.963134 0.424399
0.863661 0.98999 0.372274
0.933501 1 0.359091
0 0 0.0800488
0 0 0.0632486
0 0 0
0.0550698 0 0.0219425
0.196246 0 0.0893263
0.49395 0 0.21503
0.747906 0 0
0.90367 0 0
1 0 0
0 0 0.0210269
0 0 0.154803
0.323796 0 0.254704
0.529076 0 0
0.667536 0 0
0.786496 0 0
0.890517 0 0
0.990662 0 0
1 0 0
0 0.188785 0.241856
0 0.195727 0.289403
0 0 1
0.215351 0 0.603769
0.477775 0.202579 0.246754
0.574197 0.22237 0.241856
0.6916 0.224063 0.224048
0.799847 0.227604 0.203418
0.903807 0.230671 0.17705
0.142077 0.29601 0.393256
0.496941 0 0.628931
0 0.279622 0.60087
0 0 1
0.942672 0 1
0.768948 0.0336004 0.578485
0.647684 0.392355 0.348623
0.732769 0.411109 0.352728
0.8271 0.422187 0.360693
0.864805 0 0.985946
1 0 1
1 0 1
0.360601 0.370993 0.716945
0.700816 0 0.943435
1 0 1
0.751919 0.463874 0.465629
0.755581 0.537728 0.385504
0.842435 0.55021 0.394675
1 0 1
1 0 1
1 0 1
1 0 1
1 0 1
1 0 1
1 0.355093 0.751797
0.798779 0.64564 0.444297
0.865171 0.669612 0.424094
1 0 1
1 0 1
1 0 1
1 0 1
1 0 1
1 0 1
1 0.502571 0.789319
0.87866 0.73106 0.534691
0.895689 0.780179 0.462669
1 0 1
1 0 1
1 0 1
1 0 1
1 0 1
1 0.426963 0.966217
1 0.685023 0.761257
0.953887 0.821729 0.602335
0.942702 0.879499 0.517647
1 0 1
1 0 1
1 0 1
1 0 1
1 0 1
1 0.521813 1
1 0.786892 0.811688
1 0.908904 0.670665
1 0.970291 0.582391
0 0 0.0588235
0 0 0.0407568
0.0560769 0 0.0223545
0.0552224 0 0.0915999
0.360525 0 0.388754
0.535348 0 0.362097
0.78613 0 0.214359
0.982269 0 0
1 0 0
0 0 0.146746
0 0 0.626307
0.130434 0 0.491753
0.507088 0 0.238499
0.760067 0 0
0.880629 0 0
0.994278 0 0
1 0 0
1 0 0
0 0.19649 0.381582
0 0.0578775 0.634058
0 0 1
0.0474556 0 0.906996
0.797696 0 0.108873
0.825345 0.0224918 0.00593576
0.904036 0.0357061 0
0.995087 0.0286107 0
1 0.0206149 0
0 0.358007 0.432975
0 0.349874 0.511193
0 0 0.988891
0 0 1
0 0 1
1 0 1
0.799771 0.325521 0.397589
0.796704 0.390051 0.442008
0.894377 0.400885 0.429053
0.29276 0.411627 0.615351
0.381353 0.37615 0.682017
0 0.44033 0.727687
0 0 1
0 0 1
0 0 1
1 0 1
1 0.211963 0.751049
0.949859 0.456458 0.629068
0.862608 0 1
1 0 1
0.781979 0.0467384 1
0 0.54403 0.899367
0 0.323995 1
0 0.205829 1
0.475746 0.394583 1
1 0.385412 0.745586
1 0 1
1 0 1
1 0 1
1 0 1
1 0 1
0.38143 0.643503 0.994598
0.326772 0.627543 1
0.618982 0.553628 1
1 0 1
1 0 1
1 0 1
1 0 1
1 0 1
1 0 1
1 0 1
1 0 1
1 0 1
1 0 1
1 0 1
1 0 1
1 0 1
1 0 1
1 0 1
1 0 1
1 0 1
1 0 1
1 0 1
1 0 1
0 0 0.0290227
0 0 0.00947585
0.0439918 0 0.264775
0.220676 0 0.419654
0.519921 0 0.646967
0.729381 0 0.637781
0.788479 0 0.392981
1 0 0.252369
1 0 0
0 0 0.477623
0 0 0.926665
0 0 0.988357
0.30576 0 0.56875
0.70782 0 0.3187
0.949447 0 0.0531624
1 0 0
1 0 0
1 0 0
0 0.125231 0.637324
0 0 1
0 0 1
0 0 1
0.400107 0.0532845 0.733944
1 0 0
1 0 0
1 0 0
1 0 0
0 0.347021 0.613352
0 0.284398 0.786496
0 0 1
0 0 1
0 0 1
0.416266 0 1
1 0 0.0818036
1 0.23389 0.280354
1 0.309529 0.356741
0 0.499306 0.621256
0 0.490883 0.689403
0 0.354177 1
0 0 1
0 0 1
0 0 1
0.349554 0 1
1 0.0930648 0.626322
1 0.410361 0.502297
0.327779 0.556039 0.768658
0.331472 0.561349 0.787686
0 0.583398 0.84892
0 0.359213 1
0 0 1
0 0 1
0 0 1
0.447547 0 1
1 0.148074 0.841733
0.825483 0.343725 1
0.909911 0.197574 1
0.599817 0.552041 1
0 0.669566 1
0 0.45536 1
0 0 1
0 0 1
0 0 1
0.678828 0.432212 1
1 0 1
1 0 1
1 0 1
0.860182 0.506004 1
0.144091 0.774777 1
0 0.637507 1
0 0.47451 1
0.120836 0.457847 1
0.593256 0.565621 1
1 0 1
1 0 1
1 0 1
1 0 1
1 0 1
0.466178 0.857466 1
0.345693 0.837705 1
0.44332 0.794858 1
0.691081 0.775204 1
0 0 0.257755
0 0 0.667552
0.0881971 0 0.539239
0.235401 0 0.542687
0.424186 0 0.632044
0.810712 0 0.852766
0.817288 0 0.509163
1 0 0.438636
1 0 0.321324
0 0 0.807675
0 0 1
0 0 1
0.261967 0 0.824521
0.835187 0 0.98349
0.880385 0 0.40618
1 0 0.191531
1 0 0
1 0 0
0 0 1
0 0 1
0 0 1
0 0 1
0.319402 0 1
0.881727 0 0.637217
1 0 0
1 0 0
1 0 0
0 0.26807 0.885588
0 0 1
0 0 1
0 0 1
0 0 1
0.325826 0 1
1 0 1
1 0 0
1 0 0
0 0.483055 0.809186
0 0.447517 0.926223
0 0.072282 1
0 0 1
0 0 1
0 0 1
0.102037 0 1
0.658915 0.188663 1
1 0 0.00483711
0 0.629908 0.794644
0 0.622354 0.850401
0 0.530449 1
0 0.00663767 1
0 0 1
0 0 1
0 0 1
0 0 1
0.669017 0 1
0.326329 0.696712 0.905898
0.304753 0.705943 0.917281
0 0.712306 0.981552
0 0.584314 1
0 0 1
0 0 1
0 0 1
0 0 1
0 0 1
0.785122 0.594629 1
0.821149 0.572503 1
0.532631 0.736797 1
0 0.794934 1
0 0.635798 1
0 0 1
0 0 1
0 0 1
0 0 1
1 0 1
1 0 1
1 0 1
0.683436 0.784497 1
0.0126802 0.885634 1
0 0.745144 1
0 0.425559 1
0 0 1
0 0 1
0 0 0.619989
0 0 1
0 0 0.967712
0.23563 0 0.740917
0.401938 0 0.725261
0.886809 0 1
1 0 0.847501
1 0 0.56022
1 0 0.490959
0 0 1
0 0 1
0 0 1
0.0852979 0 1
0.422461 0 0.862608
1 0 1
1 0 0.491569
1 0 0.302647
1 0 0.135363
0 0 1
0 0 1
0 0 1
0 0 1
0.140658 0 1
0.497475 0.0254673 0.966751
1 0 0.482261
1 0 0
1 0 0
0 0 1
0 0 1
0 0 1
0 0 1
0 0 1
0.0664073 0 1
0.569284 0.05832 1
1 0 0.513268
1 0 0
0 0.42295 1
0 0.332906 1
0 0 1
0 0 1
0 0 1
0 0 1
0 0 1
0.598199 0 1
1 0 0.970886
0 0.613108 0.977111
0 0.589197 1
0 0.420813 1
0 0 1
0 0 1
0 0 1
0 0 1
0 0 1
0.553231 0 1
0 0.753475 0.955016
0 0.746334 1
0 0.673564 1
0 0.464866 1
0 0 1
0 0 1
0 0 1
0 0 1
0 0 1
0.315892 0.827207 1
0.282795 0.835355 1
0 0.833326 1
0 0.741711 1
0 0.453925 1
0 0 1
0 0 1
0 0 1
0 0 1
0.742855 0.777691 1
0.753918 0.775631 1
0.511391 0.876768 1
0 0.915099 1
0 0.795636 1
0 0.4486 1
0 0 1
0 0 1
0 0 1
0 0 0.94934
0 0 1
0 0 1
0.128161 0 1
0.399908 0 0.901534
0.578119 0 0.887755
1 0 1
1 0 0.758709
1 0 0.623163
0 0 1
0 0 1
0 0 1
0 0 1
0.383536 0 1
0.578744 0 0.952026
1 0 1
1 0 0.574289
1 0 0.40174
0 0 1
0 0 1
0 0 1
0 0 1
0 0 1
0.448692 0 1
1 0 1
1 0 0.459968
1 0 0
0 0 1
0 0 1
0 0 1
0 0 1
0 0 1
0 0 1
0.510842 0 1
1 0 1
1 0 0.28188
0 0.25864 1
0 0 1
0 0 1
0 0 1
0 0 1
0 0 1
0 0 1
0.523827 0 1
1 0 1
0 0.566171 1
0 0.51725 1
0 0.108583 1
0 0 1
0 0 1
0 0 1
0 0 1
0 0 1
0.453574 0 1
0 0.73756 1
0 0.718776 1
0 0.601633 1
0 0.187793 1
0 0 1
0 0 1
0 0 1
0 0 1
0 0 1
0 0.87187 1
0 0.86479 1
0 0.802747 1
0 0.663066 1
0 0.129793 1
0 0 1
0 0 1
0 0 1
0 0 1
0.302708 0.94963 1
0.262425 0.95613 1
0 0.948867 1
0 0.875898 1
0 0.698863 1
0 0 1
0 0 1
0 0 1
0 0 1
0 0 1
0 0 1
0 0 1
0 0 1
0.364523 0 1
0.532403 0 1
0.926711 0 1
1 0 1
1 0 0.791928
0 0 1
0 0 1
0 0 1
0 0 1
0.28043 0 1
0.533089 0 1
0.998245 0 1
1 0 0.968597
1 0 0.654734
0 0 1
0 0 1
0 0 1
0 0 1
0 0 1
0.346807 0 1
0.600153 0 1
1 0 1
1 0 0.480171
0 0 1
0 0 1
0 0 1
0 0 1
0 0 1
0 0 1
0.404807 0 1
0.681407 0.0375219 1
1 0 0.964508
0 0 1
0 0 1
0 0 1
0 0 1
0 0 1
0 0 1
0 0 1
0.395087 0 1
0.739925 0.00267033 1
0 0.467292 1
0 0.363134 1
0 0 1
0 0 1
0 0 1
0 0 1
0 0 1
0 0 1
0.267353 0 1
0 0.699321 1
0 0.66537 1
0 0.467079 1
0 0 1
0 0 1
0 0 1
0 0 1
0 0 1
0 0 1
0 0.857191 1
0 0.840772 1
0 0.748562 1
0 0.530892 1
0 0 1
0 0 1
0 0 1
0 0 1
0 0 1
0 0.986023 1
0 0.97879 1
0 0.923949 1
0 0.816449 1
0 0.561578 1
0 0 1
0 0 1
0 0 1
0 0 1
