src/assets/teal-orange.cube
TITLE "Teal Orange Grade"
LUT_3D_SIZE 5
DOMAIN_MIN 0.0 0.0 0.0
DOMAIN_MAX 1.0 1.0 1.0
0.000000 0.016000 0.064000
0.200452 0.014639 0.058557
0.538904 0.013279 0.053115
0.877356 0.011918 0.047672
0.968328 0.010557 0.042230
0.000000 0.230663 0.045691
0.178424 0.218672 0.040248
0.516876 0.206681 0.034806
0.855328 0.194691 0.029363
0.982060 0.182700 0.023921
0.000000 0.535325 0.027382
0.157428 0.523644 0.021526
0.500982 0.513184 0.014043
0.844536 0.502725 0.006559
1.000000 0.492265 0.000000
0.006290 0.843916 0.003835
0.152564 0.833457 0.000000
0.494759 0.823450 0.000000
0.834232 0.814350 0.000000
1.000000 0.805251 0.000000
0.030259 1.000000 0.000000
0.136692 1.000000 0.000000
0.476164 1.000000 0.000000
0.815636 1.000000 0.000000
1.000000 1.000000 0.000000
0.000000 0.015538 0.313542
0.198228 0.014177 0.297469
0.536680 0.012817 0.281397
0.875132 0.011456 0.265324
0.969714 0.010095 0.249251
0.000000 0.226591 0.259473
0.176200 0.214600 0.243400
0.514652 0.202609 0.227327
0.853104 0.190619 0.211255
0.984353 0.178900 0.194819
0.000000 0.531253 0.205403
0.156937 0.520092 0.188225
0.500491 0.509632 0.170111
0.844045 0.499172 0.151998
1.000000 0.488712 0.133884
0.009409 0.840364 0.145403
0.152073 0.829904 0.127290
0.492882 0.820360 0.112837
0.832354 0.811260 0.100166
1.000000 0.802161 0.087495
0.031992 1.000000 0.095553
0.134814 1.000000 0.082882
0.474287 1.000000 0.070211
0.813759 1.000000 0.057540
1.000000 1.000000 0.044869
0.000000 0.015076 0.653083
0.196004 0.013715 0.637011
0.534456 0.012355 0.620938
0.872908 0.010994 0.604866
0.971100 0.009633 0.588793
0.000000 0.222519 0.599014
0.173976 0.210528 0.582942
0.512428 0.198537 0.566869
0.850880 0.186547 0.550797
0.987472 0.175348 0.533668
0.000000 0.527181 0.544945
0.156446 0.516540 0.527074
0.500000 0.506080 0.508960
0.843554 0.495620 0.490846
1.000000 0.485160 0.472733
0.012528 0.836812 0.484252
0.151532 0.826369 0.466205
0.491005 0.817269 0.453534
0.830477 0.808170 0.440863
1.000000 0.799071 0.428192
0.033725 1.000000 0.436250
0.132937 1.000000 0.423579
0.472410 1.000000 0.410908
0.811882 1.000000 0.398237
1.000000 1.000000 0.385566
0.000000 0.014614 0.992625
0.193781 0.013253 0.976552
0.532233 0.011892 0.960480
0.870684 0.010532 0.944407
0.972486 0.009171 0.928335
0.000000 0.218446 0.938556
0.171752 0.206456 0.922483
0.510204 0.194465 0.906411
0.848656 0.182475 0.890338
0.990591 0.171796 0.872517
0.000000 0.523448 0.884036
0.155955 0.512988 0.865922
0.499509 0.502528 0.847809
0.843063 0.492068 0.829695
1.000000 0.481608 0.811582
0.015647 0.833260 0.823101
0.149655 0.823279 0.806902
0.489128 0.814179 0.794231
0.828600 0.805080 0.781560
1.000000 0.795981 0.768889
0.035458 1.000000 0.776947
0.131060 1.000000 0.764276
0.470532 1.000000 0.751605
0.810005 1.000000 0.738934
1.000000 1.000000 0.726263
0.000000 0.014152 1.000000
0.191557 0.012791 1.000000
0.530009 0.011430 1.000000
0.868461 0.010070 1.000000
0.973873 0.008709 1.000000
0.000000 0.214374 1.000000
0.169529 0.202384 1.000000
0.507981 0.190393 1.000000
0.847436 0.178703 1.000000
0.993710 0.168244 1.000000
0.000000 0.519895 1.000000
0.155464 0.509435 1.000000
0.499018 0.498976 1.000000
0.842572 0.488516 0.996394
1.000000 0.478501 0.990692
0.018766 0.829708 0.993669
0.147778 0.820188 0.989949
0.487250 0.811089 0.987908
0.826723 0.801990 0.985867
1.000000 0.792891 0.983826
0.037190 1.000000 0.985124
0.129183 1.000000 0.983083
0.468655 1.000000 0.981042
0.808128 1.000000 0.979001
1.000000 1.000000 0.976960
