src/assets/teal-orange.cube
TITLE "Teal Orange Grade"
LUT_3D_SIZE 17
DOMAIN_MIN 0.0 0.0 0.0
DOMAIN_MAX 1.0 1.0 1.0
0.000000 0.016000 0.064000
0.000000 0.015660 0.062639
0.031226 0.015320 0.061279
0.115839 0.014980 0.059918
0.200452 0.014639 0.058557
0.285065 0.014299 0.057197
0.369678 0.013959 0.055836
0.454291 0.013619 0.054476
0.538904 0.013279 0.053115
0.623517 0.012939 0.051754
0.708130 0.012598 0.050394
0.792743 0.012258 0.049033
0.877356 0.011918 0.047672
0.961969 0.011578 0.046312
0.966287 0.011238 0.044951
0.967307 0.010898 0.043590
0.968328 0.010557 0.042230
0.000000 0.014856 0.059423
0.000000 0.014516 0.058062
0.025719 0.014175 0.056701
0.110332 0.013835 0.055341
0.194945 0.013495 0.053980
0.279558 0.013155 0.052620
0.364171 0.012815 0.051259
0.448784 0.012475 0.049898
0.533397 0.012134 0.048538
0.618010 0.011794 0.047177
0.702623 0.011454 0.045816
0.787236 0.011114 0.044456
0.871849 0.010774 0.043095
0.956462 0.010434 0.041734
0.969720 0.010093 0.040374
0.970740 0.009753 0.039013
0.971761 0.009413 0.037652
0.000000 0.078331 0.054845
0.000000 0.075334 0.053485
0.020212 0.072336 0.052124
0.104825 0.069338 0.050764
0.189438 0.066341 0.049403
0.274051 0.063343 0.048042
0.358664 0.060345 0.046682
0.443277 0.057348 0.045321
0.527890 0.054350 0.043960
0.612503 0.051352 0.042600
0.697116 0.048355 0.041239
0.781729 0.045357 0.039878
0.866342 0.042359 0.038518
0.950955 0.039362 0.037157
0.973153 0.036364 0.035796
0.974173 0.033366 0.034436
0.975194 0.030369 0.033075
0.000000 0.154497 0.050268
0.000000 0.151499 0.048908
0.014705 0.148502 0.047547
0.099318 0.145504 0.046186
0.183931 0.142506 0.044826
0.268544 0.139509 0.043465
0.353157 0.136511 0.042104
0.437770 0.133513 0.040744
0.522383 0.130516 0.039383
0.606996 0.127518 0.038022
0.691609 0.124520 0.036662
0.776222 0.121523 0.035301
0.860835 0.118525 0.033940
0.945448 0.115527 0.032580
0.976586 0.112530 0.031219
0.977606 0.109532 0.029859
0.978627 0.106534 0.028498
0.000000 0.230663 0.045691
0.000000 0.227665 0.044330
0.009198 0.224667 0.042970
0.093811 0.221670 0.041609
0.178424 0.218672 0.040248
0.263037 0.215674 0.038888
0.347650 0.212677 0.037527
0.432263 0.209679 0.036166
0.516876 0.206681 0.034806
0.601489 0.203684 0.033445
0.686102 0.200686 0.032084
0.770715 0.197688 0.030724
0.855328 0.194691 0.029363
0.939941 0.191693 0.028003
0.980019 0.188695 0.026642
0.981039 0.185698 0.025281
0.982060 0.182700 0.023921
0.000000 0.306828 0.041114
0.000000 0.303831 0.039753
0.003691 0.300833 0.038392
0.088304 0.297835 0.037032
0.172917 0.294838 0.035671
0.257530 0.291840 0.034310
0.342143 0.288842 0.032950
0.426756 0.285845 0.031589
0.511369 0.282847 0.030228
0.595982 0.279849 0.028868
0.680595 0.276852 0.027507
0.765208 0.273854 0.026147
0.849821 0.270856 0.024786
0.934434 0.267859 0.023425
0.984366 0.265135 0.021699
0.986662 0.262521 0.019828
0.988958 0.259906 0.017957
0.000000 0.382994 0.036536
0.000000 0.379996 0.035176
0.000000 0.376999 0.033815
0.082797 0.374001 0.032454
0.167410 0.371003 0.031094
0.252023 0.368006 0.029733
0.336636 0.365008 0.028372
0.421249 0.362010 0.027012
0.505862 0.359013 0.025651
0.590475 0.356015 0.024291
0.675191 0.353048 0.022889
0.761079 0.350433 0.021018
0.846968 0.347818 0.019147
0.932856 0.345203 0.017276
0.992090 0.342589 0.015405
0.994386 0.339974 0.013534
0.996682 0.337359 0.011663
0.000000 0.459160 0.031959
0.000000 0.456162 0.030598
0.000000 0.453164 0.029238
0.077290 0.450167 0.027877
0.161903 0.447169 0.026516
0.246516 0.444171 0.025156
0.331129 0.441174 0.023795
0.416309 0.438346 0.022208
0.502198 0.435731 0.020337
0.588086 0.433116 0.018466
0.673975 0.430501 0.016595
0.759863 0.427886 0.014724
0.845752 0.425272 0.012853
0.931641 0.422657 0.010982
0.999814 0.420042 0.009111
1.000000 0.417427 0.007240
1.000000 0.414812 0.005370
0.000000 0.535325 0.027382
0.000000 0.532328 0.026021
0.000000 0.529330 0.024660
0.071783 0.526332 0.023300
0.157428 0.523644 0.021526
0.243316 0.521029 0.019656
0.329205 0.518414 0.017785
0.415093 0.515799 0.015914
0.500982 0.513184 0.014043
0.586870 0.510570 0.012172
0.672759 0.507955 0.010301
0.758648 0.505340 0.008430
0.844536 0.502725 0.006559
0.930425 0.500110 0.004688
1.000000 0.497495 0.002818
1.000000 0.494880 0.000947
1.000000 0.492265 0.000000
0.000000 0.611557 0.022716
0.000000 0.608942 0.020845
0.000000 0.606327 0.018974
0.070323 0.603712 0.017104
0.156212 0.601097 0.015233
0.242100 0.598482 0.013362
0.327989 0.595867 0.011491
0.413877 0.593252 0.009620
0.499766 0.590638 0.007749
0.585655 0.588023 0.005878
0.671543 0.585408 0.004007
0.757432 0.582793 0.002136
0.843320 0.580178 0.000266
0.929209 0.577563 0.000000
1.000000 0.574948 0.000000
1.000000 0.572333 0.000000
1.000000 0.569718 0.000000
0.000000 0.689010 0.016422
0.000000 0.686395 0.014552
0.000000 0.683780 0.012681
0.069107 0.681165 0.010810
0.154996 0.678550 0.008939
0.240885 0.675936 0.007068
0.326773 0.673321 0.005197
0.412662 0.670706 0.003326
0.498550 0.668091 0.001455
0.584439 0.665476 0.000000
0.670327 0.662861 0.000000
0.756216 0.660246 0.000000
0.842105 0.657631 0.000000
0.927993 0.655016 0.000000
1.000000 0.652606 0.000000
1.000000 0.650331 0.000000
1.000000 0.648056 0.000000
0.000000 0.766463 0.010129
0.000862 0.763848 0.008258
0.003158 0.761233 0.006387
0.067892 0.758618 0.004516
0.153780 0.756004 0.002645
0.239669 0.753389 0.000774
0.325557 0.750774 0.000000
0.411446 0.748159 0.000000
0.497334 0.745544 0.000000
0.583223 0.742929 0.000000
0.669112 0.740314 0.000000
0.754012 0.738028 0.000000
0.838880 0.735753 0.000000
0.923748 0.733478 0.000000
1.000000 0.731203 0.000000
1.000000 0.728929 0.000000
1.000000 0.726654 0.000000
0.006290 0.843916 0.003835
0.008586 0.841302 0.001964
0.010882 0.838687 0.000093
0.066676 0.836072 0.000000
0.152564 0.833457 0.000000
0.238453 0.830842 0.000000
0.324341 0.828227 0.000000
0.409891 0.825725 0.000000
0.494759 0.823450 0.000000
0.579627 0.821175 0.000000
0.664495 0.818900 0.000000
0.749363 0.816625 0.000000
0.834232 0.814350 0.000000
0.919100 0.812076 0.000000
1.000000 0.809801 0.000000
1.000000 0.807526 0.000000
1.000000 0.805251 0.000000
0.014014 0.921370 0.000000
0.016310 0.918755 0.000000
0.018606 0.916140 0.000000
0.065460 0.913525 0.000000
0.150638 0.911146 0.000000
0.235506 0.908872 0.000000
0.320374 0.906597 0.000000
0.405242 0.904322 0.000000
0.490110 0.902047 0.000000
0.574978 0.899772 0.000000
0.659847 0.897497 0.000000
0.744715 0.895223 0.000000
0.829583 0.892948 0.000000
0.914451 0.890673 0.000000
0.999319 0.888398 0.000000
1.000000 0.886123 0.000000
1.000000 0.883849 0.000000
0.021677 0.998843 0.000000
0.022952 0.996568 0.000000
0.024228 0.994293 0.000000
0.061121 0.992019 0.000000
0.145989 0.989744 0.000000
0.230857 0.987469 0.000000
0.315725 0.985194 0.000000
0.400593 0.982919 0.000000
0.485462 0.980644 0.000000
0.570330 0.978370 0.000000
0.655198 0.976095 0.000000
0.740066 0.973820 0.000000
0.824934 0.971545 0.000000
0.909802 0.969270 0.000000
0.994670 0.966996 0.000000
1.000000 0.964721 0.000000
1.000000 0.962446 0.000000
0.025968 1.000000 0.000000
0.027244 1.000000 0.000000
0.028519 1.000000 0.000000
0.056472 1.000000 0.000000
0.141340 1.000000 0.000000
0.226209 1.000000 0.000000
0.311077 1.000000 0.000000
0.395945 1.000000 0.000000
0.480813 1.000000 0.000000
0.565681 1.000000 0.000000
0.650549 1.000000 0.000000
0.735417 1.000000 0.000000
0.820285 1.000000 0.000000
0.905153 1.000000 0.000000
0.990021 1.000000 0.000000
1.000000 1.000000 0.000000
1.000000 1.000000 0.000000
0.030259 1.000000 0.000000
0.031535 1.000000 0.000000
0.032810 1.000000 0.000000
0.051824 1.000000 0.000000
0.136692 1.000000 0.000000
0.221560 1.000000 0.000000
0.306428 1.000000 0.000000
0.391296 1.000000 0.000000
0.476164 1.000000 0.000000
0.561032 1.000000 0.000000
0.645900 1.000000 0.000000
0.730768 1.000000 0.000000
0.815636 1.000000 0.000000
0.900505 1.000000 0.000000
0.985373 1.000000 0.000000
1.000000 1.000000 0.000000
1.000000 1.000000 0.000000
0.000000 0.015884 0.063538
0.000000 0.015544 0.062177
0.030670 0.015204 0.060817
0.115283 0.014864 0.059456
0.199896 0.014524 0.058095
0.284509 0.014184 0.056735
0.369122 0.013844 0.055374
0.453735 0.013503 0.054013
0.538348 0.013163 0.052653
0.622961 0.012823 0.051292
0.707574 0.012483 0.049932
0.792187 0.012143 0.048571
0.876800 0.011803 0.047210
0.961413 0.011462 0.045850
0.966633 0.011122 0.044489
0.967654 0.010782 0.043128
0.968674 0.010442 0.041768
0.000000 0.014740 0.058961
0.000000 0.014400 0.057600
0.025163 0.014060 0.056239
0.109776 0.013720 0.054879
0.194389 0.013380 0.053518
0.279002 0.013039 0.052157
0.363615 0.012699 0.050797
0.448228 0.012359 0.049436
0.532841 0.012019 0.048076
0.617454 0.011679 0.046715
0.702067 0.011339 0.045354
0.786680 0.010998 0.043994
0.871293 0.010658 0.042633
0.955906 0.010318 0.041272
0.970066 0.009978 0.039912
0.971087 0.009638 0.038551
0.972107 0.009298 0.037190
0.000000 0.077313 0.054383
0.000000 0.074316 0.053023
0.019656 0.071318 0.051662
0.104269 0.068320 0.050301
0.188882 0.065323 0.048941
0.273495 0.062325 0.047580
0.358108 0.059327 0.046220
0.442721 0.056330 0.044859
0.527334 0.053332 0.043498
0.611947 0.050334 0.042138
0.696560 0.047337 0.040777
0.781173 0.044339 0.039416
0.865786 0.041341 0.038056
0.950399 0.038344 0.036695
0.973499 0.035346 0.035334
0.974520 0.032348 0.033974
0.975540 0.029351 0.032613
0.000000 0.153479 0.049806
0.000000 0.150481 0.048445
0.014149 0.147484 0.047085
0.098762 0.144486 0.045724
0.183375 0.141488 0.044364
0.267988 0.138491 0.043003
0.352601 0.135493 0.041642
0.437214 0.132495 0.040282
0.521827 0.129498 0.038921
0.606440 0.126500 0.037560
0.691053 0.123502 0.036200
0.775666 0.120505 0.034839
0.860279 0.117507 0.033478
0.944892 0.114509 0.032118
0.976932 0.111512 0.030757
0.977953 0.108514 0.029396
0.978973 0.105516 0.028036
0.000000 0.229645 0.045229
0.000000 0.226647 0.043868
0.008642 0.223649 0.042508
0.093255 0.220652 0.041147
0.177868 0.217654 0.039786
0.262481 0.214656 0.038426
0.347094 0.211659 0.037065
0.431707 0.208661 0.035704
0.516320 0.205663 0.034344
0.600933 0.202666 0.032983
0.685546 0.199668 0.031622
0.770159 0.196670 0.030262
0.854772 0.193673 0.028901
0.939385 0.190675 0.027540
0.980365 0.187677 0.026180
0.981386 0.184680 0.024819
0.982406 0.181682 0.023459
0.000000 0.305810 0.040652
0.000000 0.302813 0.039291
0.003135 0.299815 0.037930
0.087748 0.296817 0.036570
0.172361 0.293820 0.035209
0.256974 0.290822 0.033848
0.341587 0.287824 0.032488
0.426200 0.284827 0.031127
0.510813 0.281829 0.029766
0.595426 0.278831 0.028406
0.680039 0.275834 0.027045
0.764652 0.272836 0.025684
0.849265 0.269838 0.024324
0.933950 0.266862 0.022934
0.985146 0.264247 0.021064
0.987442 0.261632 0.019193
0.989738 0.259017 0.017322
0.000000 0.381976 0.036074
0.000000 0.378978 0.034714
0.000000 0.375981 0.033353
0.082241 0.372983 0.031992
0.166854 0.369985 0.030632
0.251467 0.366988 0.029271
0.336080 0.363990 0.027910
0.420693 0.360992 0.026550
0.505306 0.357995 0.025189
0.589919 0.354997 0.023828
0.675068 0.352160 0.022253
0.760957 0.349545 0.020382
0.846845 0.346930 0.018512
0.932734 0.344315 0.016641
0.992870 0.341700 0.014770
0.995166 0.339085 0.012899
0.997462 0.336471 0.011028
0.000000 0.458142 0.031497
0.000000 0.455144 0.030136
0.000000 0.452146 0.028776
0.076734 0.449149 0.027415
0.161347 0.446151 0.026054
0.245960 0.443153 0.024694
0.330573 0.440156 0.023333
0.416186 0.437458 0.021572
0.502075 0.434843 0.019701
0.587964 0.432228 0.017830
0.673852 0.429613 0.015960
0.759741 0.426998 0.014089
0.845629 0.424383 0.012218
0.931518 0.421768 0.010347
1.000000 0.419154 0.008476
1.000000 0.416539 0.006605
1.000000 0.413924 0.004734
0.000000 0.534307 0.026920
0.000000 0.531310 0.025559
0.000000 0.528312 0.024198
0.071416 0.525371 0.022762
0.157305 0.522756 0.020891
0.243193 0.520141 0.019020
0.329082 0.517526 0.017149
0.414971 0.514911 0.015278
0.500859 0.512296 0.013408
0.586748 0.509681 0.011537
0.672636 0.507066 0.009666
0.758525 0.504451 0.007795
0.844414 0.501837 0.005924
0.930302 0.499222 0.004053
1.000000 0.496607 0.002182
1.000000 0.493992 0.000311
1.000000 0.491377 0.000000
0.000000 0.610669 0.022081
0.000000 0.608054 0.020210
0.000000 0.605439 0.018339
0.070200 0.602824 0.016468
0.156089 0.600209 0.014597
0.241978 0.597594 0.012726
0.327866 0.594979 0.010856
0.413755 0.592364 0.008985
0.499643 0.589749 0.007114
0.585532 0.587134 0.005243
0.671421 0.584519 0.003372
0.757309 0.581905 0.001501
0.843198 0.579290 0.000000
0.929086 0.576675 0.000000
1.000000 0.574060 0.000000
1.000000 0.571445 0.000000
1.000000 0.568830 0.000000
0.000000 0.688122 0.015787
0.000000 0.685507 0.013916
0.000000 0.682892 0.012045
0.068985 0.680277 0.010174
0.154873 0.677662 0.008304
0.240762 0.675047 0.006433
0.326650 0.672432 0.004562
0.412539 0.669817 0.002691
0.498428 0.667203 0.000820
0.584316 0.664588 0.000000
0.670205 0.661973 0.000000
0.756093 0.659358 0.000000
0.841982 0.656743 0.000000
0.927870 0.654128 0.000000
1.000000 0.651834 0.000000
1.000000 0.649559 0.000000
1.000000 0.647284 0.000000
0.000000 0.765575 0.009493
0.001642 0.762960 0.007622
0.003938 0.760345 0.005752
0.067769 0.757730 0.003881
0.153657 0.755115 0.002010
0.239546 0.752500 0.000139
0.325435 0.749885 0.000000
0.411323 0.747271 0.000000
0.497212 0.744656 0.000000
0.583100 0.742041 0.000000
0.668675 0.739530 0.000000
0.753543 0.737255 0.000000
0.838411 0.734981 0.000000
0.923279 0.732706 0.000000
1.000000 0.730431 0.000000
1.000000 0.728156 0.000000
1.000000 0.725881 0.000000
0.007070 0.843028 0.003200
0.009366 0.840413 0.001329
0.011662 0.837798 0.000000
0.066553 0.835183 0.000000
0.152442 0.832568 0.000000
0.238330 0.829954 0.000000
0.324219 0.827339 0.000000
0.409422 0.824952 0.000000
0.494290 0.822677 0.000000
0.579158 0.820402 0.000000
0.664026 0.818128 0.000000
0.748894 0.815853 0.000000
0.833762 0.813578 0.000000
0.918630 0.811303 0.000000
1.000000 0.809028 0.000000
1.000000 0.806753 0.000000
1.000000 0.804479 0.000000
0.014794 0.920481 0.000000
0.017090 0.917866 0.000000
0.019386 0.915251 0.000000
0.065301 0.912649 0.000000
0.150169 0.910374 0.000000
0.235037 0.908099 0.000000
0.319905 0.905824 0.000000
0.404773 0.903549 0.000000
0.489641 0.901275 0.000000
0.574509 0.899000 0.000000
0.659377 0.896725 0.000000
0.744245 0.894450 0.000000
0.829113 0.892175 0.000000
0.913982 0.889900 0.000000
0.998850 0.887626 0.000000
1.000000 0.885351 0.000000
1.000000 0.883076 0.000000
0.022110 0.998070 0.000000
0.023386 0.995796 0.000000
0.024661 0.993521 0.000000
0.060652 0.991246 0.000000
0.145520 0.988971 0.000000
0.230388 0.986696 0.000000
0.315256 0.984422 0.000000
0.400124 0.982147 0.000000
0.484992 0.979872 0.000000
0.569860 0.977597 0.000000
0.654729 0.975322 0.000000
0.739597 0.973047 0.000000
0.824465 0.970773 0.000000
0.909333 0.968498 0.000000
0.994201 0.966223 0.000000
1.000000 0.963948 0.000000
1.000000 0.961673 0.000000
0.026401 1.000000 0.000000
0.027677 1.000000 0.000000
0.028952 1.000000 0.000000
0.056003 1.000000 0.000000
0.140871 1.000000 0.000000
0.225739 1.000000 0.000000
0.310607 1.000000 0.000000
0.395475 1.000000 0.000000
0.480344 1.000000 0.000000
0.565212 1.000000 0.000000
0.650080 1.000000 0.000000
0.734948 1.000000 0.000000
0.819816 1.000000 0.000000
0.904684 1.000000 0.000000
0.989552 1.000000 0.000000
1.000000 1.000000 0.000000
1.000000 1.000000 0.000000
0.030692 1.000000 0.000000
0.031968 1.000000 0.000000
0.033244 1.000000 0.000000
0.051354 1.000000 0.000000
0.136222 1.000000 0.000000
0.221090 1.000000 0.000000
0.305959 1.000000 0.000000
0.390827 1.000000 0.000000
0.475695 1.000000 0.000000
0.560563 1.000000 0.000000
0.645431 1.000000 0.000000
0.730299 1.000000 0.000000
0.815167 1.000000 0.000000
0.900035 1.000000 0.000000
0.984903 1.000000 0.000000
1.000000 1.000000 0.000000
1.000000 1.000000 0.000000
0.000000 0.015769 0.143771
0.000000 0.015429 0.139753
0.030114 0.015089 0.135735
0.114727 0.014748 0.131716
0.199340 0.014408 0.127698
0.283953 0.014068 0.123680
0.368566 0.013728 0.119662
0.453179 0.013388 0.115644
0.537792 0.013048 0.111626
0.622405 0.012708 0.107608
0.707018 0.012367 0.103589
0.791631 0.012027 0.099571
0.876244 0.011687 0.095553
0.960857 0.011347 0.091535
0.966980 0.011007 0.087517
0.968000 0.010667 0.083499
0.969021 0.010326 0.079481
0.000000 0.014625 0.130254
0.000000 0.014284 0.126235
0.024607 0.013944 0.122217
0.109220 0.013604 0.118199
0.193833 0.013264 0.114181
0.278446 0.012924 0.110163
0.363059 0.012584 0.106145
0.447672 0.012244 0.102127
0.532285 0.011903 0.098108
0.616898 0.011563 0.094090
0.701511 0.011223 0.090072
0.786124 0.010883 0.086054
0.870737 0.010543 0.082036
0.955350 0.010203 0.078018
0.970413 0.009862 0.074000
0.971433 0.009522 0.069981
0.972454 0.009182 0.065963
0.000000 0.076295 0.116736
0.000000 0.073298 0.112718
0.019100 0.070300 0.108700
0.103713 0.067302 0.104682
0.188326 0.064305 0.100664
0.272939 0.061307 0.096646
0.357552 0.058309 0.092627
0.442165 0.055312 0.088609
0.526778 0.052314 0.084591
0.611391 0.049316 0.080573
0.696004 0.046319 0.076555
0.780617 0.043321 0.072537
0.865230 0.040323 0.068519
0.949843 0.037326 0.064500
0.973846 0.034328 0.060482
0.974866 0.031330 0.056464
0.975887 0.028333 0.052446
0.000000 0.152461 0.103219
0.000000 0.149463 0.099201
0.013593 0.146466 0.095183
0.098206 0.143468 0.091165
0.182819 0.140470 0.087146
0.267432 0.137473 0.083128
0.352045 0.134475 0.079110
0.436658 0.131477 0.075092
0.521271 0.128480 0.071074
0.605884 0.125482 0.067056
0.690497 0.122484 0.063038
0.775110 0.119487 0.059019
0.859723 0.116489 0.055001
0.944336 0.113491 0.050983
0.977279 0.110494 0.046965
0.978299 0.107496 0.042947
0.979320 0.104498 0.038929
0.000000 0.228627 0.089702
0.000000 0.225629 0.085684
0.008086 0.222631 0.081665
0.092699 0.219634 0.077647
0.177312 0.216636 0.073629
0.261925 0.213638 0.069611
0.346538 0.210641 0.065593
0.431151 0.207643 0.061575
0.515764 0.204645 0.057557
0.600377 0.201648 0.053538
0.684990 0.198650 0.049520
0.769603 0.195652 0.045502
0.854216 0.192655 0.041484
0.938829 0.189657 0.037466
0.980712 0.186659 0.033448
0.981732 0.183662 0.029430
0.982793 0.180676 0.025395
0.000000 0.304792 0.076184
0.000000 0.301795 0.072166
0.002579 0.298797 0.068148
0.087192 0.295799 0.064130
0.171805 0.292802 0.060112
0.256418 0.289804 0.056094
0.341031 0.286806 0.052076
0.425644 0.283809 0.048057
0.510257 0.280811 0.044039
0.594870 0.277813 0.040021
0.679483 0.274816 0.036003
0.764096 0.271818 0.031985
0.848709 0.268820 0.027967
0.933827 0.265974 0.023747
0.985925 0.263359 0.020428
0.988222 0.260744 0.018557
0.990518 0.258129 0.016686
0.000000 0.380958 0.062667
0.000000 0.377960 0.058649
0.000000 0.374963 0.054631
0.081685 0.371965 0.050613
0.166298 0.368967 0.046595
0.250911 0.365970 0.042576
0.335524 0.362972 0.038558
0.420137 0.359974 0.034540
0.504750 0.356977 0.030522
0.589363 0.353979 0.026504
0.674945 0.351272 0.022098
0.760834 0.348657 0.019747
0.846722 0.346042 0.017876
0.932611 0.343427 0.016005
0.993650 0.340812 0.014134
0.995946 0.338197 0.012264
0.998242 0.335582 0.010393
0.000000 0.457124 0.049150
0.000000 0.454126 0.045132
0.000000 0.451128 0.041114
0.076178 0.448131 0.037095
0.160791 0.445133 0.033077
0.245404 0.442135 0.029059
0.330175 0.439185 0.024978
0.416064 0.436570 0.020937
0.501952 0.433955 0.019066
0.587841 0.431340 0.017195
0.673729 0.428725 0.015324
0.759618 0.426110 0.013453
0.845507 0.423495 0.011582
0.931395 0.420880 0.009712
1.000000 0.418265 0.007841
1.000000 0.415650 0.005970
1.000000 0.413035 0.004099
0.000000 0.533289 0.035633
0.000000 0.530292 0.031614
0.000000 0.527294 0.027596
0.071294 0.524483 0.023329
0.157182 0.521868 0.020256
0.243071 0.519253 0.018385
0.328959 0.516638 0.016514
0.414848 0.514023 0.014643
0.500736 0.511408 0.012772
0.586625 0.508793 0.010901
0.672514 0.506178 0.009030
0.758402 0.503563 0.007160
0.844291 0.500948 0.005289
0.930179 0.498333 0.003418
1.000000 0.495718 0.001547
1.000000 0.493104 0.000000
1.000000 0.490489 0.000000
0.000000 0.609781 0.021680
0.000000 0.607166 0.019575
0.000000 0.604551 0.017704
0.070078 0.601936 0.015833
0.155966 0.599321 0.013962
0.241855 0.596706 0.012091
0.327743 0.594091 0.010220
0.413632 0.591476 0.008349
0.499521 0.588861 0.006478
0.585409 0.586246 0.004608
0.671298 0.583631 0.002737
0.757186 0.581016 0.000866
0.843075 0.578401 0.000000
0.928963 0.575787 0.000000
1.000000 0.573172 0.000000
1.000000 0.570557 0.000000
1.000000 0.567942 0.000000
0.000000 0.687234 0.015152
0.000000 0.684619 0.013281
0.000000 0.682004 0.011410
0.068862 0.679389 0.009539
0.154750 0.676774 0.007668
0.240639 0.674159 0.005797
0.326528 0.671544 0.003926
0.412416 0.668929 0.002056
0.498305 0.666314 0.000185
0.584193 0.663699 0.000000
0.670082 0.661084 0.000000
0.755970 0.658470 0.000000
0.841859 0.655855 0.000000
0.927459 0.653336 0.000000
1.000000 0.651061 0.000000
1.000000 0.648786 0.000000
1.000000 0.646511 0.000000
0.000125 0.764687 0.008858
0.002421 0.762072 0.006987
0.004717 0.759457 0.005116
0.067646 0.756842 0.003245
0.153535 0.754227 0.001374
0.239423 0.751612 0.000000
0.325312 0.748997 0.000000
0.411200 0.746382 0.000000
0.497089 0.743767 0.000000
0.582978 0.741152 0.000000
0.668206 0.738758 0.000000
0.753074 0.736483 0.000000
0.837942 0.734208 0.000000
0.922810 0.731933 0.000000
1.000000 0.729658 0.000000
1.000000 0.727384 0.000000
1.000000 0.725109 0.000000
0.007849 0.842140 0.002564
0.010146 0.839525 0.000693
0.012442 0.836910 0.000000
0.066430 0.834295 0.000000
0.152319 0.831680 0.000000
0.238207 0.829065 0.000000
0.324084 0.826454 0.000000
0.408952 0.824179 0.000000
0.493821 0.821905 0.000000
0.578689 0.819630 0.000000
0.663557 0.817355 0.000000
0.748425 0.815080 0.000000
0.833293 0.812805 0.000000
0.918161 0.810531 0.000000
1.000000 0.808256 0.000000
1.000000 0.805981 0.000000
1.000000 0.803706 0.000000
0.015574 0.919593 0.000000
0.017870 0.916978 0.000000
0.020166 0.914363 0.000000
0.064831 0.911876 0.000000
0.149699 0.909601 0.000000
0.234568 0.907327 0.000000
0.319436 0.905052 0.000000
0.404304 0.902777 0.000000
0.489172 0.900502 0.000000
0.574040 0.898227 0.000000
0.658908 0.895952 0.000000
0.743776 0.893678 0.000000
0.828644 0.891403 0.000000
0.913512 0.889128 0.000000
0.998380 0.886853 0.000000
1.000000 0.884578 0.000000
1.000000 0.882303 0.000000
0.022543 0.997298 0.000000
0.023819 0.995023 0.000000
0.025094 0.992748 0.000000
0.060183 0.990473 0.000000
0.145051 0.988199 0.000000
0.229919 0.985924 0.000000
0.314787 0.983649 0.000000
0.399655 0.981374 0.000000
0.484523 0.979099 0.000000
0.569391 0.976825 0.000000
0.654259 0.974550 0.000000
0.739127 0.972275 0.000000
0.823995 0.970000 0.000000
0.908864 0.967725 0.000000
0.993732 0.965450 0.000000
1.000000 0.963176 0.000000
1.000000 0.960901 0.000000
0.026834 1.000000 0.000000
0.028110 1.000000 0.000000
0.029386 1.000000 0.000000
0.055534 1.000000 0.000000
0.140402 1.000000 0.000000
0.225270 1.000000 0.000000
0.310138 1.000000 0.000000
0.395006 1.000000 0.000000
0.479874 1.000000 0.000000
0.564742 1.000000 0.000000
0.649610 1.000000 0.000000
0.734478 1.000000 0.000000
0.819347 1.000000 0.000000
0.904215 1.000000 0.000000
0.989083 1.000000 0.000000
1.000000 1.000000 0.000000
1.000000 1.000000 0.000000
0.031126 1.000000 0.000000
0.032401 1.000000 0.000000
0.033677 1.000000 0.000000
0.050885 1.000000 0.000000
0.135753 1.000000 0.000000
0.220621 1.000000 0.000000
0.305489 1.000000 0.000000
0.390357 1.000000 0.000000
0.475225 1.000000 0.000000
0.560094 1.000000 0.000000
0.644962 1.000000 0.000000
0.729830 1.000000 0.000000
0.814698 1.000000 0.000000
0.899566 1.000000 0.000000
0.984434 1.000000 0.000000
1.000000 1.000000 0.000000
1.000000 1.000000 0.000000
0.000000 0.015653 0.228656
0.000000 0.015313 0.224638
0.029558 0.014973 0.220620
0.114171 0.014633 0.216602
0.198784 0.014293 0.212584
0.283397 0.013953 0.208566
0.368010 0.013612 0.204547
0.452623 0.013272 0.200529
0.537236 0.012932 0.196511
0.621849 0.012592 0.192493
0.706462 0.012252 0.188475
0.791075 0.011912 0.184457
0.875688 0.011572 0.180439
0.960301 0.011231 0.176420
0.967326 0.010891 0.172402
0.968347 0.010551 0.168384
0.969367 0.010211 0.164366
0.000000 0.014509 0.215139
