src/assets/teal-orange.cube
TITLE "Teal Orange Grade"
LUT_3D_SIZE 9
DOMAIN_MIN 0.0 0.0 0.0
DOMAIN_MAX 1.0 1.0 1.0
0.000000 0.016000 0.064000
0.031226 0.015320 0.061279
0.200452 0.014639 0.058557
0.369678 0.013959 0.055836
0.538904 0.013279 0.053115
0.708130 0.012598 0.050394
0.877356 0.011918 0.047672
0.966287 0.011238 0.044951
0.968328 0.010557 0.042230
0.000000 0.078331 0.054845
0.020212 0.072336 0.052124
0.189438 0.066341 0.049403
0.358664 0.060345 0.046682
0.527890 0.054350 0.043960
0.697116 0.048355 0.041239
0.866342 0.042359 0.038518
0.973153 0.036364 0.035796
0.975194 0.030369 0.033075
0.000000 0.230663 0.045691
0.009198 0.224667 0.042970
0.178424 0.218672 0.040248
0.347650 0.212677 0.037527
0.516876 0.206681 0.034806
0.686102 0.200686 0.032084
0.855328 0.194691 0.029363
0.980019 0.188695 0.026642
0.982060 0.182700 0.023921
0.000000 0.382994 0.036536
0.000000 0.376999 0.033815
0.167410 0.371003 0.031094
0.336636 0.365008 0.028372
0.505862 0.359013 0.025651
0.675191 0.353048 0.022889
0.846968 0.347818 0.019147
0.992090 0.342589 0.015405
0.996682 0.337359 0.011663
0.000000 0.535325 0.027382
0.000000 0.529330 0.024660
0.157428 0.523644 0.021526
0.329205 0.518414 0.017785
0.500982 0.513184 0.014043
0.672759 0.507955 0.010301
0.844536 0.502725 0.006559
1.000000 0.497495 0.002818
1.000000 0.492265 0.000000
0.000000 0.689010 0.016422
0.000000 0.683780 0.012681
0.154996 0.678550 0.008939
0.326773 0.673321 0.005197
0.498550 0.668091 0.001455
0.670327 0.662861 0.000000
0.842105 0.657631 0.000000
1.000000 0.652606 0.000000
1.000000 0.648056 0.000000
0.006290 0.843916 0.003835
0.010882 0.838687 0.000093
0.152564 0.833457 0.000000
0.324341 0.828227 0.000000
0.494759 0.823450 0.000000
0.664495 0.818900 0.000000
0.834232 0.814350 0.000000
1.000000 0.809801 0.000000
1.000000 0.805251 0.000000
0.021677 0.998843 0.000000
0.024228 0.994293 0.000000
0.145989 0.989744 0.000000
0.315725 0.985194 0.000000
0.485462 0.980644 0.000000
0.655198 0.976095 0.000000
0.824934 0.971545 0.000000
0.994670 0.966996 0.000000
1.000000 0.962446 0.000000
0.030259 1.000000 0.000000
0.032810 1.000000 0.000000
0.136692 1.000000 0.000000
0.306428 1.000000 0.000000
0.476164 1.000000 0.000000
0.645900 1.000000 0.000000
0.815636 1.000000 0.000000
0.985373 1.000000 0.000000
1.000000 1.000000 0.000000
0.000000 0.015769 0.143771
0.030114 0.015089 0.135735
0.199340 0.014408 0.127698
0.368566 0.013728 0.119662
0.537792 0.013048 0.111626
0.707018 0.012367 0.103589
0.876244 0.011687 0.095553
0.966980 0.011007 0.087517
0.969021 0.010326 0.079481
0.000000 0.076295 0.116736
0.019100 0.070300 0.108700
0.188326 0.064305 0.100664
0.357552 0.058309 0.092627
0.526778 0.052314 0.084591
0.696004 0.046319 0.076555
0.865230 0.040323 0.068519
0.973846 0.034328 0.060482
0.975887 0.028333 0.052446
0.000000 0.228627 0.089702
0.008086 0.222631 0.081665
0.177312 0.216636 0.073629
0.346538 0.210641 0.065593
0.515764 0.204645 0.057557
0.684990 0.198650 0.049520
0.854216 0.192655 0.041484
0.980712 0.186659 0.033448
0.982793 0.180676 0.025395
0.000000 0.380958 0.062667
0.000000 0.374963 0.054631
0.166298 0.368967 0.046595
0.335524 0.362972 0.038558
0.504750 0.356977 0.030522
0.674945 0.351272 0.022098
0.846722 0.346042 0.017876
0.993650 0.340812 0.014134
0.998242 0.335582 0.010393
0.000000 0.533289 0.035633
0.000000 0.527294 0.027596
0.157182 0.521868 0.020256
0.328959 0.516638 0.016514
0.500736 0.511408 0.012772
0.672514 0.506178 0.009030
0.844291 0.500948 0.005289
1.000000 0.495718 0.001547
1.000000 0.490489 0.000000
0.000000 0.687234 0.015152
0.000000 0.682004 0.011410
0.154750 0.676774 0.007668
0.326528 0.671544 0.003926
0.498305 0.666314 0.000185
0.670082 0.661084 0.000000
0.841859 0.655855 0.000000
1.000000 0.651061 0.000000
1.000000 0.646511 0.000000
0.007849 0.842140 0.002564
0.012442 0.836910 0.000000
0.152319 0.831680 0.000000
0.324084 0.826454 0.000000
0.493821 0.821905 0.000000
0.663557 0.817355 0.000000
0.833293 0.812805 0.000000
1.000000 0.808256 0.000000
1.000000 0.803706 0.000000
0.022543 0.997298 0.000000
0.025094 0.992748 0.000000
0.145051 0.988199 0.000000
0.314787 0.983649 0.000000
0.484523 0.979099 0.000000
0.654259 0.974550 0.000000
0.823995 0.970000 0.000000
0.993732 0.965450 0.000000
1.000000 0.960901 0.000000
0.031126 1.000000 0.000000
0.033677 1.000000 0.000000
0.135753 1.000000 0.000000
0.305489 1.000000 0.000000
0.475225 1.000000 0.000000
0.644962 1.000000 0.000000
0.814698 1.000000 0.000000
0.984434 1.000000 0.000000
1.000000 1.000000 0.000000
0.000000 0.015538 0.313542
0.029002 0.014858 0.305505
0.198228 0.014177 0.297469
0.367454 0.013497 0.289433
0.536680 0.012817 0.281397
0.705906 0.012136 0.273360
0.875132 0.011456 0.265324
0.967673 0.010776 0.257288
0.969714 0.010095 0.249251
0.000000 0.074259 0.286507
0.017988 0.068264 0.278471
0.187214 0.062269 0.270435
0.356440 0.056273 0.262398
0.525666 0.050278 0.254362
0.694892 0.044283 0.246326
0.864118 0.038287 0.238289
0.974539 0.032292 0.230253
0.976580 0.026297 0.222217
0.000000 0.226591 0.259473
0.006974 0.220595 0.251436
0.176200 0.214600 0.243400
0.345426 0.208605 0.235364
0.514652 0.202609 0.227327
0.683878 0.196614 0.219291
0.853104 0.190619 0.211255
0.981405 0.184623 0.203219
0.984353 0.178900 0.194819
0.000000 0.378922 0.232438
0.000000 0.372927 0.224402
0.165186 0.366931 0.216365
0.334412 0.360936 0.208329
0.503638 0.354941 0.200293
0.674700 0.349496 0.191522
0.846477 0.344266 0.182465
0.995209 0.339036 0.173409
0.999801 0.333806 0.164352
0.000000 0.531253 0.205403
0.000000 0.525322 0.197282
0.156937 0.520092 0.188225
0.328714 0.514862 0.179168
0.500491 0.509632 0.170111
0.672268 0.504402 0.161055
0.844045 0.499172 0.151998
1.000000 0.493942 0.142941
1.000000 0.488712 0.133884
0.000000 0.685458 0.175871
0.000000 0.680228 0.166814
0.154505 0.674998 0.157757
0.326282 0.669768 0.148701
0.498059 0.664538 0.139644
0.669836 0.659308 0.130587
0.841614 0.654078 0.121530
1.000000 0.649516 0.115144
1.000000 0.644966 0.108808
0.009409 0.840364 0.145403
0.014001 0.835134 0.136347
0.152073 0.829904 0.127290
0.323146 0.824909 0.119173
0.492882 0.820360 0.112837
0.662618 0.815810 0.106502
0.832354 0.811260 0.100166
1.000000 0.806711 0.093831
1.000000 0.802161 0.087495
0.023410 0.995753 0.116866
0.025961 0.991203 0.110531
0.144112 0.986654 0.104195
0.313848 0.982104 0.097860
0.483584 0.977554 0.091524
0.653321 0.973005 0.085189
0.823057 0.968455 0.078853
0.992793 0.963905 0.072518
1.000000 0.959356 0.066182
0.031992 1.000000 0.095553
0.034543 1.000000 0.089218
0.134814 1.000000 0.082882
0.304551 1.000000 0.076547
0.474287 1.000000 0.070211
0.644023 1.000000 0.063876
0.813759 1.000000 0.057540
0.983495 1.000000 0.051205
1.000000 1.000000 0.044869
0.000000 0.015307 0.483313
0.027890 0.014627 0.475276
0.197116 0.013946 0.467240
0.366342 0.013266 0.459204
0.535568 0.012586 0.451167
0.704794 0.011905 0.443131
0.874020 0.011225 0.435095
0.968366 0.010545 0.427059
0.970407 0.009864 0.419022
0.000000 0.072223 0.456278
0.016876 0.066228 0.448242
0.186102 0.060233 0.440205
0.355328 0.054237 0.432169
0.524554 0.048242 0.424133
0.693780 0.042247 0.416097
0.863006 0.036251 0.408060
0.975232 0.030256 0.400024
0.977273 0.024261 0.391988
0.000000 0.224555 0.429243
0.005862 0.218559 0.421207
0.175088 0.212564 0.413171
0.344314 0.206569 0.405135
0.513540 0.200573 0.397098
0.682766 0.194578 0.389062
0.851992 0.188583 0.381026
0.982098 0.182587 0.372989
0.985912 0.177124 0.364244
0.000000 0.376886 0.402209
0.000000 0.370891 0.394173
0.164074 0.364895 0.386136
0.333300 0.358900 0.378100
0.502677 0.352950 0.370003
0.674454 0.347720 0.360946
0.846231 0.342490 0.351890
0.996769 0.337260 0.342833
1.000000 0.332030 0.333776
0.000000 0.529217 0.375174
0.000000 0.523546 0.366706
0.156691 0.518316 0.357649
0.328468 0.513086 0.348592
0.500245 0.507856 0.339536
0.672023 0.502626 0.330479
0.843800 0.497396 0.321422
1.000000 0.492166 0.312365
1.000000 0.486936 0.303309
0.000000 0.683682 0.345295
0.000112 0.678452 0.336238
0.154259 0.673222 0.327182
0.326037 0.667992 0.318125
0.497814 0.662762 0.309068
0.669591 0.657532 0.300011
0.840713 0.652521 0.291828
1.000000 0.647971 0.285492
1.000000 0.643421 0.279157
0.010968 0.838588 0.314828
0.015561 0.833358 0.305771
0.151828 0.828128 0.296714
0.322207 0.823364 0.289521
0.491943 0.818815 0.283186
0.661680 0.814265 0.276850
0.831416 0.809715 0.270515
1.000000 0.805166 0.264179
1.000000 0.800616 0.257844
0.024276 0.994208 0.287215
0.026827 0.989658 0.280879
0.143173 0.985109 0.274544
0.312910 0.980559 0.268208
0.482646 0.976009 0.261873
0.652382 0.971460 0.255537
0.822118 0.966910 0.249202
0.991854 0.962360 0.242866
1.000000 0.957811 0.236531
0.032858 1.000000 0.265902
0.035410 1.000000 0.259566
0.133876 1.000000 0.253231
0.303612 1.000000 0.246895
0.473348 1.000000 0.240560
0.643084 1.000000 0.234224
0.812821 1.000000 0.227889
0.982557 1.000000 0.221553
1.000000 1.000000 0.215218
0.000000 0.015076 0.653083
0.026778 0.014396 0.645047
0.196004 0.013715 0.637011
0.365230 0.013035 0.628975
0.534456 0.012355 0.620938
0.703682 0.011674 0.612902
0.872908 0.010994 0.604866
0.969059 0.010314 0.596829
0.971100 0.009633 0.588793
0.000000 0.070187 0.626049
0.015764 0.064192 0.618013
0.184990 0.058197 0.609976
0.354216 0.052201 0.601940
0.523442 0.046206 0.593904
0.692668 0.040211 0.585867
0.861894 0.034215 0.577831
0.975925 0.028220 0.569795
0.977966 0.022225 0.561759
0.000000 0.222519 0.599014
0.004750 0.216523 0.590978
0.173976 0.210528 0.582942
0.343202 0.204533 0.574905
0.512428 0.198537 0.566869
0.681654 0.192542 0.558833
0.850880 0.186547 0.550797
0.982880 0.180578 0.542725
0.987472 0.175348 0.533668
0.000000 0.374850 0.571980
0.000000 0.368855 0.563943
0.162962 0.362859 0.555907
0.332188 0.356864 0.547871
0.502432 0.351174 0.539428
0.674209 0.345944 0.530371
0.845986 0.340714 0.521314
0.998328 0.335484 0.512257
1.000000 0.330254 0.503200
0.000000 0.527181 0.544945
0.000000 0.521770 0.536130
0.156446 0.516540 0.527074
0.328223 0.511310 0.518017
0.500000 0.506080 0.508960
0.671777 0.500850 0.499903
0.843554 0.495620 0.490846
1.000000 0.490390 0.481790
1.000000 0.485160 0.472733
0.000000 0.681906 0.514720
0.001672 0.676676 0.505663
0.154014 0.671446 0.496606
0.325791 0.666216 0.487549
0.497568 0.660986 0.478492
0.669345 0.655756 0.469436
0.839775 0.650975 0.462176
1.000000 0.646426 0.455841
1.000000 0.641876 0.449505
0.012528 0.836812 0.484252
0.017120 0.831582 0.475195
0.151532 0.826369 0.466205
0.321269 0.821819 0.459870
0.491005 0.817269 0.453534
0.660741 0.812720 0.447199
0.830477 0.808170 0.440863
1.000000 0.803621 0.434528
1.000000 0.799071 0.428192
0.025142 0.992663 0.457563
0.027694 0.988113 0.451228
0.142235 0.983563 0.444892
0.311971 0.979014 0.438557
0.481707 0.974464 0.432221
0.651443 0.969915 0.425886
0.821180 0.965365 0.419550
0.990916 0.960815 0.413215
1.000000 0.956266 0.406879
0.033725 1.000000 0.436250
0.036276 1.000000 0.429915
0.132937 1.000000 0.423579
0.302673 1.000000 0.417244
0.472410 1.000000 0.410908
0.642146 1.000000 0.404573
0.811882 1.000000 0.398237
0.981618 1.000000 0.391902
1.000000 1.000000 0.385566
0.000000 0.014845 0.822854
0.025667 0.014164 0.814818
0.194893 0.013484 0.806782
0.364118 0.012804 0.798745
0.533344 0.012124 0.790709
0.702570 0.011443 0.782673
0.871796 0.010763 0.774637
0.969752 0.010083 0.766600
0.971793 0.009402 0.758564
0.000000 0.068151 0.795820
0.014652 0.062156 0.787783
0.183878 0.056161 0.779747
0.353104 0.050165 0.771711
0.522330 0.044170 0.763675
0.691556 0.038175 0.755638
0.860782 0.032179 0.747602
0.976618 0.026184 0.739566
0.978659 0.020189 0.731529
0.000000 0.220483 0.768785
0.003638 0.214487 0.760749
0.172864 0.208492 0.752713
0.342090 0.202497 0.744676
0.511316 0.196501 0.736640
0.680542 0.190506 0.728604
0.849768 0.184511 0.720567
0.984439 0.178802 0.712149
0.989032 0.173572 0.703092
0.000000 0.372814 0.741751
0.000000 0.366819 0.733714
0.161850 0.360823 0.725678
0.331076 0.354828 0.717642
0.502186 0.349398 0.708852
0.673963 0.344168 0.699795
0.845741 0.338938 0.690738
0.999888 0.333708 0.681682
1.000000 0.328478 0.672625
0.000000 0.525224 0.714611
0.000000 0.519994 0.705555
0.156200 0.514764 0.696498
0.327977 0.509534 0.687441
0.499755 0.504304 0.678384
0.671532 0.499074 0.669328
0.843309 0.493844 0.660271
1.000000 0.488614 0.651214
1.000000 0.483384 0.642157
0.000000 0.680130 0.684144
0.003231 0.674900 0.675087
0.153769 0.669670 0.666030
0.325546 0.664440 0.656974
0.497323 0.659210 0.647917
0.669100 0.653980 0.638860
0.838836 0.649430 0.632525
1.000000 0.644881 0.626189
1.000000 0.640331 0.619854
0.014088 0.835036 0.653676
0.018680 0.829806 0.644620
0.150594 0.824824 0.636553
0.320330 0.820274 0.630218
0.490066 0.815724 0.623883
0.659802 0.811175 0.617547
0.829539 0.806625 0.611212
0.999275 0.802075 0.604876
1.000000 0.797526 0.598541
0.026009 0.991118 0.627911
0.028560 0.986568 0.621576
0.141296 0.982018 0.615241
0.311032 0.977469 0.608905
0.480769 0.972919 0.602570
0.650505 0.968369 0.596234
0.820241 0.963820 0.589899
0.989977 0.959270 0.583563
1.000000 0.954721 0.577228
0.034591 1.000000 0.606599
0.037142 1.000000 0.600263
0.131999 1.000000 0.593928
0.301735 1.000000 0.587592
0.471471 1.000000 0.581257
0.641207 1.000000 0.574921
0.810943 1.000000 0.568586
0.980680 1.000000 0.562250
1.000000 1.000000 0.555915
0.000000 0.014614 0.992625
0.024555 0.013933 0.984589
0.193781 0.013253 0.976552
0.363007 0.012573 0.968516
0.532233 0.011892 0.960480
0.701459 0.011212 0.952444
0.870684 0.010532 0.944407
0.970445 0.009852 0.936371
0.972486 0.009171 0.928335
0.000000 0.066115 0.965590
0.013541 0.060120 0.957554
0.182767 0.054124 0.949518
0.351993 0.048129 0.941482
0.521218 0.042134 0.933445
0.690444 0.036139 0.925409
0.859670 0.030143 0.917373
0.977311 0.024148 0.909337
0.979352 0.018153 0.901300
0.000000 0.218446 0.938556
0.002527 0.212451 0.930520
0.171752 0.206456 0.922483
0.340978 0.200461 0.914447
0.510204 0.194465 0.906411
0.679430 0.188470 0.898375
0.848656 0.182475 0.890338
0.985999 0.177026 0.881573
0.990591 0.171796 0.872517
0.000000 0.370778 0.911521
0.000000 0.364783 0.903485
0.160738 0.358787 0.895449
0.330164 0.352852 0.887333
0.501941 0.347622 0.878276
0.673718 0.342392 0.869219
0.845495 0.337162 0.860163
1.000000 0.331932 0.851106
1.000000 0.326702 0.842049
0.000000 0.523448 0.884036
0.000000 0.518218 0.874979
0.155955 0.512988 0.865922
0.327732 0.507758 0.856865
0.499509 0.502528 0.847809
0.671286 0.497298 0.838752
0.843063 0.492068 0.829695
1.000000 0.486838 0.820638
1.000000 0.481608 0.811582
0.000199 0.678354 0.853568
0.004791 0.673124 0.844511
0.153523 0.667894 0.835455
0.325300 0.662664 0.826398
0.497077 0.657434 0.817341
0.668161 0.652435 0.809208
0.837898 0.647885 0.802873
1.000000 0.643336 0.796537
1.000000 0.638786 0.790202
0.015647 0.833260 0.823101
0.020239 0.828030 0.814044
0.149655 0.823279 0.806902
0.319391 0.818729 0.800566
0.489128 0.814179 0.794231
0.658864 0.809630 0.787895
0.828600 0.805080 0.781560
0.998336 0.800530 0.775225
1.000000 0.795981 0.768889
0.026875 0.989573 0.798260
0.029426 0.985023 0.791924
0.140358 0.980473 0.785589
0.310094 0.975924 0.779253
0.479830 0.971374 0.772918
0.649566 0.966824 0.766583
0.819302 0.962275 0.760247
0.989039 0.957725 0.753912
1.000000 0.953175 0.747576
0.035458 1.000000 0.776947
0.038009 1.000000 0.770611
0.131060 1.000000 0.764276
0.300796 1.000000 0.757941
0.470532 1.000000 0.751605
0.640269 1.000000 0.745270
0.810005 1.000000 0.738934
0.979741 1.000000 0.732599
1.000000 1.000000 0.726263
0.000000 0.014383 1.000000
0.023443 0.013702 1.000000
0.192669 0.013022 1.000000
0.361895 0.012342 1.000000
0.531121 0.011661 1.000000
0.700347 0.010981 1.000000
0.869573 0.010301 1.000000
0.971139 0.009620 1.000000
0.973180 0.008940 1.000000
0.000000 0.064079 1.000000
0.012429 0.058084 1.000000
0.181655 0.052088 1.000000
0.350881 0.046093 1.000000
0.520107 0.040098 1.000000
0.689333 0.034102 1.000000
0.858559 0.028107 1.000000
0.978004 0.022112 1.000000
0.980045 0.016117 1.000000
0.000000 0.216410 1.000000
0.001415 0.210415 1.000000
0.170641 0.204420 1.000000
0.339867 0.198424 1.000000
0.509093 0.192429 1.000000
0.678318 0.186434 1.000000
0.847681 0.180480 1.000000
0.987558 0.175250 1.000000
0.992151 0.170020 1.000000
0.000000 0.368742 1.000000
0.000000 0.362746 1.000000
0.159627 0.356751 1.000000
0.329918 0.351076 1.000000
0.501695 0.345846 1.000000
0.673472 0.340616 1.000000
0.845250 0.335386 1.000000
1.000000 0.330156 1.000000
1.000000 0.324926 1.000000
0.000000 0.521671 1.000000
0.000000 0.516442 1.000000
0.155709 0.511212 1.000000
0.327486 0.505982 1.000000
0.499264 0.500752 1.000000
0.671041 0.495522 1.000000
0.842818 0.490292 0.997664
1.000000 0.485062 0.990063
1.000000 0.480046 0.981863
0.001758 0.676578 1.000000
0.006350 0.671348 1.000000
0.153278 0.666118 1.000000
0.325055 0.660888 0.995822
0.496832 0.655658 0.986765
0.667223 0.650890 0.979557
0.836959 0.646340 0.973221
1.000000 0.641791 0.966886
1.000000 0.637241 0.960550
0.017207 0.831484 0.992525
0.021710 0.826283 0.983586
0.148717 0.821733 0.977250
0.318453 0.817184 0.970915
0.488189 0.812634 0.964579
0.657925 0.808085 0.958244
0.827661 0.803535 0.951908
0.997398 0.798985 0.945573
1.000000 0.794436 0.939237
0.027742 0.988027 0.968608
0.030293 0.983478 0.962273
0.139419 0.978928 0.955937
0.309155 0.974379 0.949602
0.478891 0.969829 0.943266
0.648628 0.965279 0.936931
0.818364 0.960730 0.930595
0.988100 0.956180 0.924260
1.000000 0.951630 0.917925
0.036324 1.000000 0.947295
0.038875 1.000000 0.940960
0.130121 1.000000 0.934624
0.299858 1.000000 0.928289
0.469594 1.000000 0.921953
0.639330 1.000000 0.915618
0.809066 1.000000 0.909283
0.978802 1.000000 0.902947
1.000000 1.000000 0.896612
0.000000 0.014152 1.000000
0.022331 0.013471 1.000000
0.191557 0.012791 1.000000
0.360783 0.012111 1.000000
0.530009 0.011430 1.000000
0.699235 0.010750 1.000000
0.868461 0.010070 1.000000
0.971832 0.009389 1.000000
0.973873 0.008709 1.000000
0.000000 0.062043 1.000000
0.011317 0.056048 1.000000
0.180543 0.050052 1.000000
0.349769 0.044057 1.000000
0.518995 0.038062 1.000000
0.688221 0.032066 1.000000
0.857447 0.026071 1.000000
0.978698 0.020076 1.000000
0.980739 0.014080 1.000000
0.000000 0.214374 1.000000
0.000303 0.208379 1.000000
0.169529 0.202384 1.000000
0.338755 0.196388 1.000000
0.507981 0.190393 1.000000
0.677207 0.184398 1.000000
0.847436 0.178703 1.000000
0.989118 0.173473 1.000000
0.993710 0.168244 1.000000
0.000000 0.366706 1.000000
0.000000 0.360710 1.000000
0.158515 0.354715 1.000000
0.329673 0.349299 1.000000
0.501450 0.344069 1.000000
0.673227 0.338839 1.000000
0.845004 0.333610 1.000000
1.000000 0.328380 1.000000
1.000000 0.323150 1.000000
0.000000 0.519895 1.000000
0.000000 0.514665 1.000000
0.155464 0.509435 1.000000
0.327241 0.504205 1.000000
0.499018 0.498976 1.000000
0.670795 0.493746 1.000000
0.842572 0.488516 0.996394
1.000000 0.483286 0.992652
1.000000 0.478501 0.990692
0.003318 0.674801 1.000000
0.007910 0.669571 1.000000
0.153032 0.664342 0.998773
0.324809 0.659112 0.995031
0.496548 0.653894 0.991341
0.666284 0.649345 0.990320
0.836020 0.644795 0.989300
1.000000 0.640245 0.988279
1.000000 0.635696 0.987259
0.018766 0.829708 0.993669
0.022577 0.824738 0.990969
0.147778 0.820188 0.989949
0.317514 0.815639 0.988928
0.487250 0.811089 0.987908
0.656987 0.806539 0.986887
0.826723 0.801990 0.985867
0.996459 0.797440 0.984846
1.000000 0.792891 0.983826
0.028608 0.986482 0.988557
0.031159 0.981933 0.987536
0.138480 0.977383 0.986516
0.308217 0.972833 0.985495
0.477953 0.968284 0.984475
0.647689 0.963734 0.983454
0.817425 0.959185 0.982434
0.987161 0.954635 0.981413
1.000000 0.950085 0.980393
0.037190 1.000000 0.985124
0.039742 1.000000 0.984103
0.129183 1.000000 0.983083
0.298919 1.000000 0.982062
0.468655 1.000000 0.981042
0.638391 1.000000 0.980021
0.808128 1.000000 0.979001
0.977864 1.000000 0.977980
1.000000 1.000000 0.976960
